!!!COM: Beethoven
!!!OTL: Acht Variationen uber "Une fievre brulante" aus "Richard Coeur de Lion" von A.E.M. Gretry
!!!Variation: Theme a
**function	**harm	**kern	**kern
*	*	*clefF4	*clefG2
*	*	*k[]	*k[]
*M3/4	*M3/4	*M3/4	*M3/4
*C:	*C:	*C:	*C:
4T	4I	4r	4g 4ee
=2	=2	=2	=2
2.T	2.I	[2.c 2.C	2g 2ee
.	.	.	4e 4cc
=3	=3	=3	=3
2T	2IVc	2c] 2C	2a 2ff
4T	4I	4c 4C	4g 4ee
=4	=4	=4	=4
*	*	*^	*
2T	2I	2G	[2.C	2g 2ee
4T	4viio	4B	.	4f 4dd
=5	=5	=5	=5	=5
2.T	2.I	4c	2C]	2e 2cc
.	.	4r	.	.
*	*	*v	*v	*
.	.	4c	4e 4cc
=6	=6	=6	=6
2T	2Vb	2B	2g 2dd
4T	4I	4c	4g 4cc 4ee
=7	=7	=7	=7
2P	2iib	2F	4a 4dd 4ff
.	.	.	2a 2dd 2ff
4P	4ii	4D	.
=8	=8	=8	=8
2.D	2.V	2G	[2.g [2.b [2.dd
.	.	4GG	.
=9	=9	=9	=9
2D	2V	4G	4g] 4b] 4dd]
.	.	4r	4r
*-	*-	*-	*-
!!!COM: Beethoven
!!!OTL: Acht Variationen uber "Une fievre brulante" aus "Richard Coeur de Lion" von A.E.M. Gretry
!!!Variation: Theme b
**function	**harm	**kern	**kern
*	*	*clefF4	*clefG2
*	*	*k[]	*k[]
*M3/4	*M3/4	*M3/4	*M3/4
*C:	*C:	*C:	*C:
4D	4V	4r	4b 4dd
=10	=10	=10	=10
2.D	2.V	2.G	2b 2dd
.	.	.	4b 4dd
=11	=11	=11	=11
2. D	2.vi ii/V	2.A	2e 2a 2cc
.	.	.	4e 4a 4cc
=12	=12	=12	=12
2.D	2.V/V	4D	2.d [2.f# [2.a
.	.	4F#	.
.	.	4A	.
=13	=13	=13	=13
2D	2V/V	4d	2f#] 2a]
.	.	4A	.
4D	4V7b/V	4F# 4c	4dd
=14	=14	=14	=14
2D	2I/V	2G 2B	2b
4D	4Ib/V	4B 4d	4g
=15	=15	=15	=15
2P	2IVb/V	2E 2e	2g 2cc
4P	4IV/V	4C 4c	4g 4ee
=16	=16	=16	=16
2D	2Ic/V	2D 2d	2g 2b
4D	4V7/V	4D 4c	4f# 4a
=17	=17	=17	=17
2.T	2.I/V	2.G 2.B	2.g
*-	*-	*-	*-
!!!COM: Beethoven
!!!OTL: Acht Variationen uber "Une fievre brulante" aus "Richard Coeur de Lion" von A.E.M. Gretry
!!!Variation: Theme c
**function	**harm	**kern	**kern
*	*	*clefF4	*clefG2
*	*	*k[]	*k[]
*M3/4	*M3/4	*M3/4	*M3/4
*C:	*C:	*C:	*C:
=18	=18	=18	=18
2D	2V	2G	4b 4dd
.	.	.	4cc 4ee
4D	4V7d/IV	4F	4dd 4ff
=19	=19	=19	=19
2.D	2.iii	4E	2ee 2gg
.	.	4F	.
.	.	4G	4ee 4gg
=20	=20	=20	=20
2.D	2.V7/ii	2.A	4ee 4gg
.	.	.	4dd 4ff
.	.	.	4cc# 4ee
=21	=21	=21	=21
2.D	2.ii	4D	2.dd 2.ff
.	.	4E	.
.	.	4F	.
=22	=22	=22	=22
2.D	2.V7	2.G	4dd 4ff
.	.	.	4b 4dd
.	.	.	4b 4dd
=23	=23	=23	=23
2.D	2.V7	4GG	2.dd 2.ff
.	.	4AA	.
.	.	4BB	.
=24	=24	=24	=24
2.T	2.I	4C	4g 4cc 4ee
.	.	4E	4e 4g 4cc
.	.	4C	4e 4g 4cc
=25	=25	=25	=25
2D	2V	2G	2g 2b 2dd
*-	*-	*-	*-
!!!COM: Beethoven
!!!OTL: Acht Variationen uber "Une fievre brulante" aus "Richard Coeur de Lion" von A.E.M. Gretry
!!!Variation: Theme d
**function	**harm	**kern	**kern
*	*	*clefF4	*clefG2
*	*	*k[]	*k[]
*M3/4	*M3/4	*M3/4	*M3/4
*C:	*C:	*C:	*C:
4T	4I	4r	4g 4ee
=26	=26	=26	=26
2.T	2.I	[2.c [2.C	2g 2ee
.	.	.	4e 4cc
=27	=27	=27	=27
2T	2IVc	2c] 2C]	2a 2ff
4T	4I	4c 4C	4g 4ee
=28	=28	=28	=28
*	*	*^	*
2T	2I	2G	[2.C	2g 2ee
4T	4viio	4B	.	4f 4dd
=29	=29	=29	=29	=29
2T	2I	2c	2C]	2e 2cc
*	*	*v	*v	*
4T	4Ib	4E	4g 4cc
=30	=30	=30	=30
2P	2iib	2F	4a 4dd
.	.	.	2a 2dd 2ff
4P	4ii	4D	.
=31	=31	=31	=31
*	*	*	*^
2.D	2.V7	2G	2dd	2.f 2.b
.	.	4GG	4ee	.
*	*	*	*v	*v
=32	=32	=32	=32
2.T	2.I	4C	[2.e [2.g [2.cc
.	.	4GG	.
.	.	4EE	.
=33	=33	=33	=33
2T	2I	4CC	4e] 4g] 4cc]
.	.	4r	4r
*-	*-	*-	*-
!!!COM: Beethoven
!!!OTL: Acht Variationen uber "Une fievre brulante" aus "Richard Coeur de Lion" von A.E.M. Gretry
!!!Variation: Variation 1 a
**function	**harm	**kern	**kern
*	*	*clefG2	*clefG2
*	*	*k[]	*k[]
*M3/4	*M3/4	*M3/4	*M3/4
*C:	*C:	*C:	*C:
4T	4I	4r	4ee
=35	=35	=35	=35
*	*	*^	*
2.T	2.I	2g	2.c	(8dd#L
.	.	.	.	8eeJ
.	.	.	.	8ffL
.	.	.	.	8eeJ
.	.	4e	.	8ddL
.	.	.	.	8ccJ
=36	=36	=36	=36	=36
2T	2IVc	2a	2.c	8ggL
.	.	.	.	8ffJ
.	.	.	.	8eeL
.	.	.	.	8ffJ
4T	4I	4g	.	8dd#L
.	.	.	.	8eeJ
=37	=37	=37	=37	=37
2.T	2.I	2g	[2.c	8ffL
.	.	.	.	8eeJ
.	.	.	.	8dd#L
.	.	.	.	8eeJ
.	.	4f	.	8cc#L
.	.	.	.	8ddJ
=38	=38	=38	=38	=38
2.T	2.I	4e	4c]	8bL
.	.	.	.	8ccJ
*	*	*v	*v	*
.	.	4r	8ddL
.	.	.	8ccJ
.	.	4r	8bL
.	.	.	8ccJ)
=39	=39	=39	=39
2T	2viio	4r	(8cc#L
.	.	.	8ddJ
.	.	(4b	8eeL
.	.	.	8ddJ
4T	4I	4cc	8ffL
.	.	.	8eeJ
=40	=40	=40	=40
2P	2IVb	4a	8ggL
.	.	.	8ffJ
.	.	4e	8aaL
.	.	.	8gg#J
4P	4IV	4f)	8bbL
.	.	.	8aaJ
=41	=41	=41	=41
*	*	*clefF4	*
*	*	*^	*
2.P	2.iib	(4A	2.F	8dddL
.	.	.	.	8ccc#J
.	.	4d	.	8eeeL
.	.	.	.	8dddJ
.	.	4f)	.	8fffL
.	.	.	.	8dddJ)
=42	=42	=42	=42	=42
4D	4Ic	(4e	2G	(4ccc
4D	4V	4d)	.	4bb)
*	*	*v	*v	*
*-	*-	*-	*-
!!!COM: Beethoven
!!!OTL: Acht Variationen uber "Une fievre brulante" aus "Richard Coeur de Lion" von A.E.M. Gretry
!!!Variation: Variation 1 b
**function	**harm	**kern	**kern
*	*	*clefG2	*clefG2
*	*	*k[]	*k[]
*M3/4	*M3/4	*M3/4	*M3/4
*C:	*C:	*C:	*C:
4D	4V	4r	4ddd
=43	=43	=43	=43
2D	2V	2g 2b	(8ccc#L
.	.	.	8dddJ
.	.	.	8eeeL
.	.	.	8dddJ
4D	4viio/vi	4g# 4b	8cccL
.	.	.	8bbJ
=44	=44	=44	=44
2. D	2.vi ii/V	2a 2cc	8dddL
.	.	.	8cccJ
.	.	.	8bbL
.	.	.	8aaJ
.	.	4a 4cc	8ggL
.	.	.	8ff#J
=45	=45	=45	=45
2.D	2.V7b/V	2.f# 2.a	8eeL
.	.	.	8ddJ
.	.	.	8cc#L
.	.	.	8ddJ
.	.	.	8eeL
.	.	.	8ccJ
=46	=46	=46	=46
2D	2V/V	4r	8bL
.	.	.	8aJ
.	.	4d 4f#	8g#L
.	.	.	8aJ
4D	4V7d/V	4c 4d 4f#	8bL
.	.	.	8ccJ)
=47	=47	=47	=47
*	*	*^	*
2.D	2.Ib/V	(4B	2.B	(8ddL
.	.	.	.	8cc#J
.	.	4d	.	8eeL
.	.	.	.	8ddJ
.	.	[4g	.	8aaL
.	.	.	.	8ggJ)
=48	=48	=48	=48	=48
2.P	2.iib/V	4g]	2.c	(8eeL
.	.	.	.	8dd#J
.	.	4g#	.	8ff#L
.	.	.	.	8eeJ
.	.	4a)	.	8ddd#L
.	.	.	.	8eeeJ)
=49	=49	=49	=49	=49
2D	2Ic/V	4r	2d	(8ccc#L
.	.	.	.	8dddJ
.	.	(4b	.	8bbL
.	.	.	.	8ggJ
4D	4V7/V	4cc)	4d	8ff#L
.	.	.	.	8ddJ)
=50	=50	=50	=50	=50
*	*	*v	*v	*
2T	2I/V	4b 4g	4gg
.	.	4r 4G	4r
*-	*-	*-	*-
!!!COM: Beethoven
!!!OTL: Acht Variationen uber "Une fievre brulante" aus "Richard Coeur de Lion" von A.E.M. Gretry
!!!Variation: Variation 1 c
**function	**harm	**kern	**kern
*	*	*clefF4	*clefG2
*	*	*k[]	*k[]
*M3/4	*M3/4	*M3/4	*M3/4
*C:	*C:	*C:	*C:
4T	4V	4r	(8gL
.	.	.	8ggJ)
=51	=51	=51	=51
4T	4I/V	(4g	(8bL
.	.	.	8ggJ
4T	4viiob/ii	4e	8cc#L
.	.	.	8ggJ
4T	4IVc/ii	4d	8ddL
.	.	.	8ggJ)
=52	=52	=52	=52
2.T	2.viio/ii	4c#)	(8eeL
.	.	.	8ggJ
.	.	4r	8ff#L
.	.	.	8ggJ
.	.	4r	8aaL
.	.	.	8ggJ)
=53	=53	=53	=53
2.T	2.viioD7/ii	2.C# 2.A	8r
.	.	.	(8bb-
.	.	.	8aaL
.	.	.	8ggJ
.	.	.	8ffL
.	.	.	8eeJ)
=54	=54	=54	=54
2.T	2.ii	4D 4A	(8ggL
.	.	.	8ffJ
.	.	4r	8eeL
.	.	.	8ffJ
.	.	4r	8ggL
.	.	.	8ffJ)
*	*	*clefG2	*
=55	=55	=55	=55
4T	4IV	(4f	(8aL
.	.	.	8ffJ
4T	4viiob	4d	8bL
.	.	.	8ffJ
4T	4IVc	4c	8ccL
.	.	.	8ffJ)
=56	=56	=56	=56
2.T	2.Vb	4B)	(8ddL
.	.	.	8ffJ
.	.	4r	8eeL
.	.	.	8ffJ
.	.	4B 4g	8ggL
.	.	.	8ffJ)
=57	=57	=57	=57
4T	4I	4c 4g	8r
.	.	.	8ee
4T	4Vb	4B 4g	8r
.	.	.	8dd
4P	4viiob/V	4A 4f#	8r
.	.	.	8cc
=58	=58	=58	=58
2.D	2.V	4g 4G	8r
.	.	.	(8b
.	.	4r 4r	8ccL
.	.	.	8cc#J
.	.	4r 4r	8ddL
.	.	.	8dd#J)
*-	*-	*-	*-
!!!!SEGMENT: 
!!!COM: Beethoven
!!!OTL: Acht Variationen uber "Une fievre brulante" aus "Richard Coeur de Lion" von A.E.M. Gretry
!!!Variation: Variation 1 d
**function	**harm	**kern	**kern
*	*	*clefG2	*clefG2
*	*	*k[]	*k[]
*M3/4	*M3/4	*M3/4	*M3/4
*C:	*C:	*C:	*C:
=59	=59	=59	=59
*	*	*^	*
2.T	2.I	2g	2.c	(8eeL
.	.	.	.	8ddJ
.	.	.	.	8ffL
.	.	.	.	8eeJ
.	.	4e	.	8ddL
.	.	.	.	8ccJ)
=60	=60	=60	=60	=60
2T	2IVc	2a	2.c	(8ggL
.	.	.	.	8ffJ
.	.	.	.	8eeL
.	.	.	.	8ffJ
4T	4I	4g	.	8dd#L
.	.	.	.	8eeJ)
=61	=61	=61	=61	=61
2.T	2.I	2g	[2.c	(8ffL
.	.	.	.	8eeJ
.	.	.	.	8dd#L
.	.	.	.	8eeJ
.	.	4f	.	8cc#L
.	.	.	.	8ddJ
=62	=62	=62	=62	=62
2.T	2.I	4e	4c]	8bL
.	.	.	.	8ccJ
.	.	4r	4r	8ddL
.	.	.	.	8ccJ
.	.	4r	4r	8bL
.	.	.	.	8ccJ
*	*	*v	*v	*
*	*	*clefF4	*
=63	=63	=63	=63
2T	2viio	4r	8cc#L
.	.	.	8ddJ
.	.	(4B	8eeL
.	.	.	8ddJ
4T	4I	4c)	8ffL
.	.	.	8eeJ
=64	=64	=64	=64
*	*	*^	*
2.P	2.iib	(4A	2.F	8ggL
.	.	.	.	8ffJ
.	.	4d	.	8gg#L
.	.	.	.	8aaJ
.	.	[4f)	.	8ffL
.	.	.	.	8ddJ
=65	=65	=65	=65	=65
2.D	2.V7	4f]	2.G	8ccL
.	.	.	.	8bJ
.	.	(8fL	.	8aL
.	.	8eJ	.	8gJ
.	.	8fL	.	8aL
.	.	8dJ)	.	8bJ)
=66	=66	=66	=66	=66
2T	2I	4e	4c	4cc
.	.	4r	4r	4r
*	*	*v	*v	*
*-	*-	*-	*-
!!!COM: Beethoven
!!!OTL: Acht Variationen uber "Une fievre brulante" aus "Richard Coeur de Lion" von A.E.M. Gretry
!!!Variation: Variation 2 a
**function	**harm	**kern	**kern
*	*	*clefF4	*clefG2
*	*	*k[]	*k[]
*M3/4	*M3/4	*M3/4	*M3/4
*C:	*C:	*C:	*C:
4T	4I	4r	12eL
.	.	.	12g
.	.	.	12eeJ
=68	=68	=68	=68
*	*	*^	*
2.T	2.I	4CC	2.CC	12eL
.	.	.	.	12g
.	.	.	.	12eeJ
.	.	4C	.	12d#L
.	.	.	.	12f#
.	.	.	.	12dd#J
.	.	4C	.	12eL
.	.	.	.	12g
.	.	.	.	12eeJ
=69	=69	=69	=69	=69
2T	2IVc	4CC	2.CC	12eL
.	.	.	.	12g#
.	.	.	.	12eeJ
.	.	4C	.	12fL
.	.	.	.	12a
.	.	.	.	12ffJ
4T	4I	4C	.	12eL
.	.	.	.	12g
.	.	.	.	12eeJ
=70	=70	=70	=70	=70
2.T	2.I	4CC	2.CC	12eL
.	.	.	.	12g
.	.	.	.	12eeJ
.	.	4C	.	12d#L
.	.	.	.	12f#
.	.	.	.	12dd#J
.	.	4C	.	12dL
.	.	.	.	12f
.	.	.	.	12ddJ
=71	=71	=71	=71	=71
2.T	2.I	4CC	2.CC	12BL
.	.	.	.	12d#
.	.	.	.	12bJ
.	.	4C	.	12cL
.	.	.	.	12e
.	.	.	.	12ccJ
.	.	4C	.	12cL
.	.	.	.	12e
.	.	.	.	12ccJ
*	*	*v	*v	*
=72	=72	=72	=72
2T	2Vb	4BB'	12dL
.	.	.	12g
.	.	.	12ddJ
.	.	4r	12d#L
.	.	.	12g
.	.	.	12dd#J
4T	4I	4C'	12eL
.	.	.	12g
.	.	.	12eeJ
=73	=73	=73	=73
2P	2IVb	4AA'	12fL
.	.	.	12cc
.	.	.	12ffJ
.	.	4r	12f#L
.	.	.	12cc
.	.	.	12ff#J
4P	4Ib	4EE'	12gL
.	.	.	12cc
.	.	.	12ggJ
=74	=74	=74	=74
2P	2IV	4FF'	12g#L
.	.	.	12cc
.	.	.	12gg#J
.	.	4r	12aL
.	.	.	12cc
.	.	.	12aaJ
4P	4iib	4FF'	12fnL
.	.	.	12dd
.	.	.	12ffJ
=75	=75	=75	=75
2D	2V	4GG	4d 4b 4dd
.	.	4G	4r
*-	*-	*-	*-
!!!COM: Beethoven
!!!OTL: Acht Variationen uber "Une fievre brulante" aus "Richard Coeur de Lion" von A.E.M. Gretry
!!!Variation: Variation 2 b
**function	**harm	**kern	**kern
*	*	*clefF4	*clefG2
*	*	*k[]	*k[]
*M3/4	*M3/4	*M3/4	*M3/4
*C:	*C:	*C:	*C:
4D	4V	4r	12dL
.	.	.	12b
.	.	.	12ddJ
=76	=76	=76	=76
2.D	2.Vb	4B	12dL
.	.	.	12g
.	.	.	12ddJ
.	.	4r	12ddL
.	.	.	12gg
.	.	.	12dddJ
.	.	4B	12r
.	.	.	12gL
.	.	.	12ddJ
=77	=77	=77	=77
2.D	2.ii7/V	4A	12eL
.	.	.	12g
.	.	.	12ccJ
.	.	4r	12ccL
.	.	.	12gg
.	.	.	12cccJ
.	.	4A	12r
.	.	.	12gL
.	.	.	12ccJ
=78	=78	=78	=78
2.D	2.V7/V	4D	12f#L
.	.	.	12a
.	.	.	12ccJ
.	.	4r	12ddL
.	.	.	12ff#
.	.	.	12aaJ
.	.	4r	12cccL
.	.	.	12bb
.	.	.	12aaJ
=79	=79	=79	=79
2D	2V7/V	2r	12ggL
.	.	.	12ff#
.	.	.	12eeJ
.	.	.	12ddL
.	.	.	12cc#
.	.	.	12eeJ
4D	4V7b/V	(4F#	12ddL
.	.	.	12ee
.	.	.	12ccJ
=80	=80	=80	=80
2D	2I/V	4G)	12bL
.	.	.	12dd
.	.	.	12ccJ
.	.	4r	12bL
.	.	.	12a
.	.	.	12gJ
4D	4Ib/V	(4BB	12f#L
.	.	.	12e
.	.	.	12dJ
=81	=81	=81	=81
2.P	2.IV/V	4C)	12cL
.	.	.	12e
.	.	.	12dJ
*	*	*	*clefF4
.	.	4r	12cL
.	.	.	12B
.	.	.	12AJ
.	.	(4CC	12GL
.	.	.	12F#
.	.	.	12EJ
=82	=82	=82	=82
2D	2Ic/V	4DD)	12DL
.	.	.	12G
.	.	.	12BJ
.	.	4D	12dL
.	.	.	12B
.	.	.	12GJ
4D	4V7/V	4D	12cL
.	.	.	12A
.	.	.	12F#J
=83	=83	=83	=83
2T	2I/V	4GG	12r
.	.	.	12GL
.	.	.	12BJ
*	*	*	*clefG2
.	.	4r	12dL
.	.	.	12g
.	.	.	12bJ
*-	*-	*-	*-
!!!COM: Beethoven
!!!OTL: Acht Variationen uber "Une fievre brulante" aus "Richard Coeur de Lion" von A.E.M. Gretry
!!!Variation: Variation 2 c
**function	**harm	**kern	**kern
*	*	*clefF4	*clefG2
*	*	*k[]	*k[]
*M3/4	*M3/4	*M3/4	*M3/4
*C:	*C:	*C:	*C:
4T	4I/V	(4G	12ddL
.	.	.	12b
.	.	.	12gJ
=84	=84	=84	=84
4T	4V7d	4Fn')	12dL
.	.	.	12b
.	.	.	12ddJ
4T	4viiob/ii	4E'	12eL
.	.	.	12cc#
.	.	.	12eeJ
4T	4ii	4D'	12fL
.	.	.	12dd
.	.	.	12ffJ
=85	=85	=85	=85
2.T	2.viio/ii	4C#'	12gL
.	.	.	12ee
.	.	.	12ggJ
.	.	4r	12f#L
.	.	.	12dd#
.	.	.	12ff#J
.	.	4r	12gL
.	.	.	12ee
.	.	.	12ggJ
=86	=86	=86	=86
2.T	2.V7/ii	4AA	12gL
.	.	.	12ee
.	.	.	12ggJ
.	.	4A	12fnL
.	.	.	12dd
.	.	.	12ffJ
.	.	4A	12eL
.	.	.	12cc#
.	.	.	12eeJ
=87	=87	=87	=87
2.T	2.ii	4D	12fL
.	.	.	12dd
.	.	.	12ffJ
.	.	4r	12eL
.	.	.	12cc#
.	.	.	12eeJ
.	.	4r	12fL
.	.	.	12dd
.	.	.	12ffJ
=88	=88	=88	=88
2.T	2.V7b	4G 4BB	12fL
.	.	.	12dd
.	.	.	12ffJ
.	.	4G 4D	12dL
.	.	.	12b
.	.	.	12ddJ
.	.	4G 4F	12dL
.	.	.	12b
.	.	.	12ddJ
=89	=89	=89	=89
2.T	2.V7b	4G 4BB	12fL
.	.	.	12dd
.	.	.	12ffJ
.	.	4r	12eL
.	.	.	12cc#
.	.	.	12eeJ
.	.	4G 4BB	12fL
.	.	.	12dd
.	.	.	12ffJ
=90	=90	=90	=90
4T	4I	4G 4C	12eL
.	.	.	12g
.	.	.	12eeJ
4T	4Vb	4G 4BB	12dL
.	.	.	12g
.	.	.	12ddJ
4T	4viiob/V	4G 4AA	12cnL
.	.	.	12f#
.	.	.	12ccJ
=91	=91	=91	=91
2.D	2.V	4G 4GG	12bL
.	.	.	12cc
.	.	.	12cc#J
.	.	4r	12ddL
.	.	.	12cc
.	.	.	12bJ
.	.	4r	12aL
.	.	.	12g
.	.	.	12fJ
*-	*-	*-	*-
!!!!SEGMENT: 
!!!COM: Beethoven
!!!OTL: Acht Variationen uber "Une fievre brulante" aus "Richard Coeur de Lion" von A.E.M. Gretry
!!!Variation: Variation 2 d
**function	**harm	**kern	**kern
*	*	*clefF4	*clefG2
*	*	*k[]	*k[]
*M3/4	*M3/4	*M3/4	*M3/4
*C:	*C:	*C:	*C:
=92	=92	=92	=92
*	*	*^	*
2.T	2.I	4CC	2.CC	12eL
.	.	.	.	12g
.	.	.	.	12eeJ
.	.	4C	.	12d#L
.	.	.	.	12f#
.	.	.	.	12dd#J
.	.	4C	.	12eL
.	.	.	.	12g
.	.	.	.	12eeJ
=93	=93	=93	=93	=93
2T	2IVc	4CC	2.CC	12eL
.	.	.	.	12g#
.	.	.	.	12eeJ
.	.	4C	.	12fL
.	.	.	.	12a
.	.	.	.	12ffJ
4T	4I	4C	.	12eL
.	.	.	.	12g
.	.	.	.	12eeJ
=94	=94	=94	=94	=94
2.T	2.I	4CC	2.CC	12eL
.	.	.	.	12g
.	.	.	.	12eeJ
.	.	4C	.	12d#L
.	.	.	.	12f#
.	.	.	.	12dd#J
.	.	4C	.	12dL
.	.	.	.	12f
.	.	.	.	12ddJ
=95	=95	=95	=95	=95
2.T	2.I	4CC	2.CC	12BL
.	.	.	.	12d#
.	.	.	.	12bJ
.	.	4C	.	12cL
.	.	.	.	12e
.	.	.	.	12ccJ
.	.	4C	.	12cL
.	.	.	.	12e
.	.	.	.	12ccJ
*	*	*v	*v	*
=96	=96	=96	=96
2T	2Vb	4BB'	12c#L
.	.	.	12g
.	.	.	12cc#J
.	.	4r	12dL
.	.	.	12g
.	.	.	12ddJ
4T	4I	4C'	12eL
.	.	.	12g
.	.	.	12eeJ
=97	=97	=97	=97
2P	2IVb	4AA'	12fL
.	.	.	12cc
.	.	.	12ffJ
.	.	4r	12f#L
.	.	.	12cc
.	.	.	12ff#J
4P	4Ib	4EE'	12gL
.	.	.	12cc
.	.	.	12ggJ
=98	=98	=98	=98
2P	2IV	4FF'	12g#L
.	.	.	12cc
.	.	.	12gg#J
.	.	4r	12aL
.	.	.	12cc
.	.	.	12aaJ
4D	4V7	4GG'	12dL
.	.	.	12f
.	.	.	12bJ
=99	=99	=99	=99
2T	2I	4CC 4C	4e 4cc
.	.	4r	4r
*-	*-	*-	*-
!!!COM: Beethoven
!!!OTL: Acht Variationen uber "Une fievre brulante" aus "Richard Coeur de Lion" von A.E.M. Gretry
!!!Variation: Variation 3 a
**function	**harm	**kern	**kern
*	*	*clefF4	*clefG2
*	*	*k[]	*k[]
*M3/4	*M3/4	*M3/4	*M3/4
*C:	*C:	*C:	*C:
4T	4I	4r	4gg' 4eee'
=101	=101	=101	=101
2.T	2.I	16r	4gg' 4eee'
.	.	(16CCLL	.
.	.	16DD	.
.	.	16EEJJ	.
.	.	16FFLL	4r
.	.	16GG	.
.	.	16AA	.
.	.	16BBJJ)	.
.	.	8C'L	4ee' 4ccc'
.	.	8C'J	.
=102	=102	=102	=102
2T	2IVc	16r	4aa' 4fff'
.	.	(16CLL	.
.	.	16D	.
.	.	16EJJ	.
.	.	16FLL	4r
.	.	16G	.
.	.	16A	.
.	.	16BJJ)	.
4T	4I	8c'L	4gg' 4eee'
.	.	8c'J	.
*	*	*clefG2	*
=103	=103	=103	=103
2.T	2.I	16r	4gg' 4eee'
.	.	(16cLL	.
.	.	16d	.
.	.	16eJJ	.
.	.	16fLL	4r
.	.	16g	.
.	.	16a	.
.	.	16bJJ)	.
.	.	8cc'L	4ff' 4ddd'
.	.	8cc'J	.
=104	=104	=104	=104
2T	2I	4cc'	16ee 16ccc
.	.	.	(16ccLL
.	.	.	16dd
.	.	.	16eeJJ
.	.	4r	16ffLL
.	.	.	16gg
.	.	.	16aa
.	.	.	16bbJJ)
4T	4Ib	4e' 4g'	8ccc'L
.	.	.	8ccc'J
=105	=105	=105	=105
2P	2iib	4f' 4a'	16r
.	.	.	(16ddLL
.	.	.	16ee
.	.	.	16ffJJ
.	.	4r	16ggLL
.	.	.	16aa
.	.	.	16bb
.	.	.	16ccc#JJ)
4P	4Ib	4e' 4g'	8ddd'L
.	.	.	8eee'J
=106	=106	=106	=106
2P	2ii	4d' 4f'	(8fffL
.	.	.	8eeeJ)
.	.	4r	8ddd'L
.	.	.	8eee'J
4P	4V7b/V	4f#' 4a'	8ccc'L
.	.	.	8ddd'J
=107	=107	=107	=107
2D	2V	4g' 4b'	(8bbL
.	.	.	8dddJ)
.	.	4r	8bb'L
.	.	.	8ccc'J
4D	4V7/V	4d' 4cc'	8aa'L
.	.	.	8bb'J
=108	=108	=108	=108
2.D	2.V	4g' 4b'	8gg'
.	.	.	8g'L
.	.	4r	8b'
.	.	.	8dd'J
.	.	4r	8gg'L
.	.	.	8bb'J
*-	*-	*-	*-
!!!COM: Beethoven
!!!OTL: Acht Variationen uber "Une fievre brulante" aus "Richard Coeur de Lion" von A.E.M. Gretry
!!!Variation: Variation 3 b
**function	**harm	**kern	**kern
*	*	*clefF4	*clefG2
*	*	*k[]	*k[]
*M3/4	*M3/4	*M3/4	*M3/4
*C:	*C:	*C:	*C:
=109	=109	=109	=109
2.D	2.V	16r	4dd' 4bb' 4ddd'
.	.	(16GGLL	.
.	.	16AA	.
.	.	16BBJJ	.
.	.	16CLL	4r
.	.	16D	.
.	.	16E	.
.	.	16F#JJ)	.
.	.	8G'L	4dd' 4bb' 4ddd'
.	.	8G'J	.
=110	=110	=110	=110
2. D	2.vi ii/V	16r	4cc' 4ee' 4ccc'
.	.	(16AALL	.
.	.	16BB	.
.	.	16CJJ	.
.	.	16DLL	4r
.	.	16E	.
.	.	16F#	.
.	.	16GJJ)	.
.	.	8A'L	4cc' 4ee' 4ccc'
.	.	8A'J	.
=111	=111	=111	=111
2.D	2.V7/V	16r	4cc' 4ff#' 4aa'
.	.	(16DLL	.
.	.	16E	.
.	.	16F#JJ	.
.	.	16GLL	4r
.	.	16A	.
.	.	16B	.
.	.	16c#JJ)	.
.	.	8d'L	4r
.	.	8d'J	.
=112	=112	=112	=112
2D	2V/V	4d	16r
.	.	.	(16eLL
.	.	.	16f#
.	.	.	16gJJ
.	.	4r	16aLL
.	.	.	16b
.	.	.	16cc
.	.	.	16ddJJ
*	*	*clefG2	*
4D	4V7d/V	4c	16eeLL
.	.	.	16ff#
.	.	.	16gg
.	.	.	16aaJJ)
=113	=113	=113	=113
2.D	2.Ib/V	4B 4g	(16bbLL
.	.	.	16aa
.	.	.	16bb
.	.	.	16cccJJ)
.	.	4r	8ddd'L
.	.	.	8bb'J
.	.	4r	8gg'L
.	.	.	8dd'J
=114	=114	=114	=114
2P	2IV/V	4c 4g	(16eeLL
.	.	.	16dd#
.	.	.	16ee
.	.	.	16ff#JJ)
.	.	4r	8gg'L
.	.	.	8ee'J
4P	4ii/V	4r	8cc'L
.	.	.	8a'J
=115	=115	=115	=115
*	*	*^	*
2D	2Ic/V	4r	2.D	(16bLL
.	.	.	.	16a
.	.	.	.	16b
.	.	.	.	16ccJJ)
.	.	(4B	.	8dd'L
.	.	.	.	8d'J
4D	4V7/V	4c)	.	8e'L
.	.	.	.	8f#'J
=116	=116	=116	=116	=116
2T	2I/V	4B	4G	4g
*	*	*v	*v	*
.	.	4G'	4r
*-	*-	*-	*-
!!!COM: Beethoven
!!!OTL: Acht Variationen uber "Une fievre brulante" aus "Richard Coeur de Lion" von A.E.M. Gretry
!!!Variation: Variation 3 c
**function	**harm	**kern	**kern
*	*	*clefF4	*clefG2
*	*	*k[]	*k[]
*M3/4	*M3/4	*M3/4	*M3/4
*C:	*C:	*C:	*C:
4T	4I/V	4r	4G'
=117	=117	=117	=117
2.T	2.iio/ii	(4B-	16r
.	.	.	(16gLL
.	.	.	16a
.	.	.	16b-JJ
.	.	4G	16ccLL
.	.	.	16dd
.	.	.	16ee
.	.	.	16ffJJ)
.	.	4E	8gg'L
.	.	.	8gg'J
=118	=118	=118	=118
2.T	2.V7b/ii	4C#)	(8ggL
.	.	.	8eeJ)
.	.	4r	8cc#'L
.	.	.	8a'J
.	.	4r	8g'L
.	.	.	8e'J
=119	=119	=119	=119
2.T	2.V/ii	(16AALL	4A' 4c#' 4e'
.	.	16GG#	.
.	.	16AA	.
.	.	16GG#JJ	.
.	.	16AALL	4A' 4c#' 4e'
.	.	16GG#	.
.	.	16AA	.
.	.	16GG#JJ	.
.	.	16AALL	4A' 4c#' 4e'
.	.	16GG	.
.	.	16FF	.
.	.	16EEJJ)	.
=120	=120	=120	=120
2.T	2.ii	8DDL	4A' 4d' 4f'
.	.	(16EEL	.
.	.	16FFJJ	.
.	.	16GGLL	4r
.	.	16AA	.
.	.	16BB	.
.	.	16C#JJ	.
.	.	16DLL	4r
.	.	16E	.
.	.	16F	.
.	.	16GJJ)	.
=121	=121	=121	=121
2.T	2.ii	(4A	16r
.	.	.	(16fLL
.	.	.	16g
.	.	.	16aJJ
.	.	4F	16bLL
.	.	.	16cc
.	.	.	16dd
.	.	.	16eeJJ)
.	.	4D	8ff'L
.	.	.	8ff'J
=122	=122	=122	=122
2.T	2.V7b	4BB)	(8ffL
.	.	.	8ddJ)
.	.	4r	8b'L
.	.	.	8g'J
.	.	4r	8f'L
.	.	.	8d'J
=123	=123	=123	=123
2T	2I	(16CLL	4G' 4c' 4e'
.	.	16BB	.
.	.	16C	.
.	.	16BBJJ	.
.	.	16CLL	4G' 4c' 4e'
.	.	16BB	.
.	.	16AA	.
.	.	16GGJJ	.
4T	4viiom7/V	16FF#LL	4G' 4c' 4e'
.	.	16GG	.
.	.	16AA	.
.	.	16FF#JJ)	.
=124	=124	=124	=124
2D	2V	(16GGLL	4G' 4B' 4d'
.	.	16FF#	.
.	.	16GG	.
.	.	16FF#JJ	.
.	.	16GGLL	4r
.	.	16FF#	.
.	.	16GG	.
.	.	16FF#JJ	.
*-	*-	*-	*-
!!!COM: Beethoven
!!!OTL: Acht Variationen uber "Une fievre brulante" aus "Richard Coeur de Lion" von A.E.M. Gretry
!!!Variation: Variation 3 d
**function	**harm	**kern	**kern
*	*	*clefF4	*clefG2
*	*	*k[]	*k[]
*M3/4	*M3/4	*M3/4	*M3/4
*C:	*C:	*C:	*C:
4T	4V	16GGLL	4ee' 4gg' 4eee'
.	.	16FF	.
.	.	16EE	.
.	.	16DDJJ)	.
=125	=125	=125	=125
2.T	2.I	16r	4ee' 4gg' 4eee'
.	.	(16CCLL	.
.	.	16DD	.
.	.	16EEJJ	.
.	.	16FFLL	4r
.	.	16GG	.
.	.	16AA	.
.	.	16BBJJ)	.
.	.	8C'L	4cc' 4ee' 4ccc'
.	.	8C'J	.
=126	=126	=126	=126
2T	2IVc	16r	4ff' 4aa' 4fff'
.	.	(16CLL	.
.	.	16D	.
.	.	16EJJ	.
.	.	16FLL	4r
.	.	16G	.
.	.	16A	.
.	.	16BJJ)	.
4T	4I	8c'L	4ee' 4gg' 4eee'
.	.	8c'J	.
=127	=127	=127	=127
*	*	*clefG2	*
2.T	2.I	16r	4ee' 4gg' 4eee'
.	.	(16cLL	.
.	.	16d	.
.	.	16eJJ	.
.	.	16fLL	4r
.	.	16g	.
.	.	16a	.
.	.	16bJJ)	.
.	.	8cc'L	4dd' 4ff' 4ddd'
.	.	8cc'J	.
=128	=128	=128	=128
2T	2I	4cc'	8ee'L 8ccc'
.	.	.	8gg'J
.	.	4r	8ee'L
.	.	.	8cc'J
*	*	*clefF4	*
4T	4Ib	4E' 4G'	8g'L
.	.	.	8e'J
=129	=129	=129	=129
2P	2iib	4F' 4A'	16r
.	.	.	(16dLL
.	.	.	16e
.	.	.	16fJJ
.	.	4r	16gLL
.	.	.	16a
.	.	.	16b
.	.	.	16cc#JJ)
4P	4Ib	4E' 4G'	8dd'L
.	.	.	8ee'J
=130	=130	=130	=130
2P	2ii	4D' 4F'	16r
.	.	.	(16ffLL
.	.	.	16gg
.	.	.	16aaJJ
.	.	4r	16bbLL
.	.	.	16ccc
.	.	.	16ddd
.	.	.	16eeeJJ)
4D	4V7	4GG' 4D' 4F'	8fff'L
.	.	.	8bb'J
=131	=131	=131	=131
2.T	2.I	4C' 4E'	8ccc'L
.	.	.	8gg'J
.	.	4r	8ee'L
.	.	.	8cc'J
.	.	4r	8g'L
.	.	.	8e'J
=132	=132	=132	=132
2T	2I	2r	4c'
.	.	.	4r
*-	*-	*-	*-
!!!COM: Beethoven
!!!OTL: Acht Variationen uber "Une fievre brulante" aus "Richard Coeur de Lion" von A.E.M. Gretry
!!!Variation: Variation 4 a
**function	**harm	**kern	**kern
*	*	*clefG2	*clefG2
*	*	*k[b-e-a-]	*k[b-e-a-]
*M3/4	*M3/4	*M3/4	*M3/4
*c:	*c:	*c:	*c:
4T	4i	4r	4g
=134	=134	=134	=134
2.T	2.i	2.c 2.e-	(4g
.	.	.	4ee-
.	.	.	4cc)
=135	=135	=135	=135
2.T	2.ivc	2.c 2.f 2.a-	(4cc
.	.	.	4ff
.	.	.	4ee-
=136	=136	=136	=136
2T	2iiom7d	2.c 2.d 2.f 2.a-	4dd
.	.	.	4cc
4T	4viioD7	.	4b)
=137	=137	=137	=137
2T	2i	2c 2e- 2g	(4dd
.	.	.	4cc)
4T	4ib	4e- 4g	4cc
=138	=138	=138	=138
2P	2iiom7b	(2f 2a-	(2cc 2dd
4P	4V7c/iv	4g 4b-	4cc 4ee
=139	=139	=139	=139
2P	2ivb	2a-	2cc 2ff
4P	4Vb/iv	4e) 4g	4cc) 4gg
=140	=140	=140	=140
2P	2iv	4f 4a-	(8ccL 8bb-
.	.	.	8aa-J
.	.	4r	8ggL
.	.	.	8ffJ
*	*	*^	*
4P	4iiom7b	4F	4f	8ee-L
.	.	.	.	8ddJ)
=141	=141	=141	=141	=141
4D	4ic	(4e-	4.G	(4cc
4D	4V	8d)	.	8b)
.	.	8r	8r	8r
*	*	*v	*v	*
*-	*-	*-	*-
!!!COM: Beethoven
!!!OTL: Acht Variationen uber "Une fievre brulante" aus "Richard Coeur de Lion" von A.E.M. Gretry
!!!Variation: Variation 4 b
**function	**harm	**kern	**kern
*	*	*clefF4	*clefG2
*	*	*k[b-e-a-]	*k[b-e-a-]
*M3/4	*M3/4	*M3/4	*M3/4
*c:	*c:	*c:	*c:
4T	4V/III	4r	([4b-
=142	=142	=142	=142
2.T	2.I/III	2.E- 2.G 2.B-	8b-L]
.	.	.	8ggJ
.	.	.	8ffL
.	.	.	8ee-J
.	.	.	8ddL
.	.	.	8ccJ)
=143	=143	=143	=143
2.T	2.ii7d/III	2.E- 2.F 2.c	(4b-
.	.	.	4a-)
.	.	.	([4a-
=144	=144	=144	=144
2.T	2.V7b/III	[2.D [2.F [2.A- [2.B-	8a-L]
.	.	.	8aa-J
.	.	.	8ffL
.	.	.	8ddJ
.	.	.	8b-L
.	.	.	8a-J
=145	=145	=145	=145
2.T	2.V7b/III	4D] 4F] 4A-] 4B-]	8fL
.	.	.	8dJ
.	.	4r	8B-L
.	.	.	8AJ
.	.	4r	8A-L
.	.	.	8B-J
=146	=146	=146	=146
2.T	2.Ib/III	2.GG	8GL
.	.	.	8e-J
.	.	.	8B-L
.	.	.	8e-J
.	.	.	8BL
.	.	.	8e-J
=147	=147	=147	=147
2P	2IV/III	2.AA-	8cL
.	.	.	8ccJ
.	.	.	8eL
.	.	.	8gJ
4P	4iib/III	.	8fL
.	.	.	8a-J
=148	=148	=148	=148
2.D	2.V7/III	2.BB-	8dL
.	.	.	8fJ
.	.	.	8A-L
.	.	.	8dJ
.	.	.	8A-L
.	.	.	8B-J
=149	=149	=149	=149
2T	2I/III	4EE-	4G) 4e-
.	.	4r	4r
*-	*-	*-	*-
!!!COM: Beethoven
!!!OTL: Acht Variationen uber "Une fievre brulante" aus "Richard Coeur de Lion" von A.E.M. Gretry
!!!Variation: Variation 4 c
**function	**harm	**kern	**kern
*	*	*clefF4	*clefG2
*	*	*k[b-e-a-]	*k[b-e-a-]
*M3/4	*M3/4	*M3/4	*M3/4
*c:	*c:	*c:	*c:
4D	4V/III	4B-	4r
=150	=150	=150	=150
2D	2V/III	(4B-	2r
.	.	4c	.
4D	4viioD7d/iv	4d-)	4e 4g
=151	=151	=151	=151
2.D	2.viioD7d/iv	2d-	(4e 4g
.	.	.	4f 4a-
.	.	4d-	4g) 4b- 4ee
=152	=152	=152	=152
2.D	2.viioD7d/iv	(4d-	(4g 4b- 4ee
.	.	4c	4a- 4cc 4ff
.	.	4B-)	4cc) 4ee 4gg
=153	=153	=153	=153
2.D	2.ivb	4A-	4cc 4ff 4aa-
.	.	4r	4r
.	.	4A-	4r
=154	=154	=154	=154
2D	2ivb	(4A-	4r
.	.	4B-	4r
*	*	*	*^
4D	4viioD7	4B)	4dd	4f 4a-
=155	=155	=155	=155	=155
2.D	2.viioD7	2B	(4dd	2f 2a-
.	.	.	4ee-	.
.	.	(4BB	4ff	4a- 4dd
*	*	*	*v	*v
=156	=156	=156	=156
4T	4i	4C	4ee- 4g 4cc
4T	4iiob	4FF	4dd 4f 4a-
4T	4viioD7/V	4FF#)	4cc) 4e- 4a
=157	=157	=157	=157
2D	2V	4GG	4b 4d 4g
.	.	4r	4r
*-	*-	*-	*-
!!!COM: Beethoven
!!!OTL: Acht Variationen uber "Une fievre brulante" aus "Richard Coeur de Lion" von A.E.M. Gretry
!!!Variation: Variation 4 d
**function	**harm	**kern	**kern
*	*	*clefG2	*clefG2
*	*	*k[b-e-a-]	*k[b-e-a-]
*M3/4	*M3/4	*M3/4	*M3/4
*c:	*c:	*c:	*c:
4T	4i	4r	4g
=158	=158	=158	=158
2.T	2.i	2.c 2.e-	(4g
.	.	.	4ee-
.	.	.	4cc)
=159	=159	=159	=159
2.T	2.ivc	2.c 2.f 2.a-	(4cc
.	.	.	4ff
.	.	.	4ee-
=160	=160	=160	=160
2T	2iiom7d	2.c 2.d 2.f 2.a-	4dd
.	.	.	4cc
4T	4viioD7	.	4b)
=161	=161	=161	=161
2T	2i	2c 2e- 2g	(4dd
.	.	.	4cc)
4T	4ib	4e- 4g	4cc
=162	=162	=162	=162
*	*	*	*^
2P	2iiom7b	2f 2a-	(2cc	2dd
4P	4V7c/iv	4g 4b-	4cc)	4ee
*	*	*	*v	*v
=163	=163	=163	=163
2P	2ivb	4a-	(8ccL 8ff
.	.	.	8aa-J
.	.	4r	8ggL
.	.	.	8ffJ
*	*	*clefF4	*
4P	4ii@b	(4F 4f	8ee-L
.	.	.	8ddJ
=164	=164	=164	=164
2D	2ic	4G) 4e-	4cc)
.	.	4r	4r
4D	4V7	4G' 4d'	4f' 4b'
=165	=165	=165	=165
2D	2i	4C' 4c'	4e-' 4cc'
.	.	4r	4r
*-	*-	*-	*-
!!!COM: Beethoven
!!!OTL: Acht Variationen uber "Une fievre brulante" aus "Richard Coeur de Lion" von A.E.M. Gretry
!!!Variation: Variation 5 a
**function	**harm	**kern	**kern
*	*	*clefG2	*clefG2
*	*	*k[]	*k[]
*M3/4	*M3/4	*M3/4	*M3/4
*C:	*C:	*C:	*C:
4T	4Ib	4e 4g	4r
=167	=167	=167	=167
2T	2Ib	(2e 2g	12r
.	.	.	(12bbL
.	.	.	12cccJ
.	.	.	12dddL
.	.	.	12bb
.	.	.	12cccJ
4T	4I	4c) 4e	12dddL
.	.	.	12bb
.	.	.	12cccJ)
=168	=168	=168	=168
2T	2IV	(2f 2a	12r
.	.	.	(12bbL
.	.	.	12cccJ
.	.	.	12dddL
.	.	.	12bb
.	.	.	12cccJ
4T	4Ib	4e) 4g	12dddL
.	.	.	12bb
.	.	.	12cccJ)
=169	=169	=169	=169
2T	2Ib	(2e 2g	12r
.	.	.	(12bbL
.	.	.	12cccJ
.	.	.	12dddL
.	.	.	12bb
.	.	.	12cccJ
4T	4viiob	4d) 4f	12dddL
.	.	.	12bb
.	.	.	12cccJ)
=170	=170	=170	=170
2T	2I	4c 4e	(12dddL
.	.	.	12bb
.	.	.	12cccJ
.	.	4r	12dddL
.	.	.	12bb
.	.	.	12cccJ)
4T	4viiob/ii	4e 4g	4ccc#
=171	=171	=171	=171
*	*	*^	*
2P	2iib	(4a	2f 2a	2ddd
.	.	4dd	.	.
4P	4viiob/ii	4cc#)	4e 4g	4eee
*	*	*v	*v	*
=172	=172	=172	=172
2.P	2.ii	4dd 4d 4f	(8fffL
.	.	.	8eeeJ)
.	.	4r	(8dddL
.	.	.	8cccJ)
.	.	4r	(8bbL
.	.	.	8aaJ)
*	*	*clefF4	*
=173	=173	=173	=173
*	*	*^	*
2.P	2.iib	(4A	2.F	(8ggL
.	.	.	.	8ffJ)
.	.	4d	.	(8eeL
.	.	.	.	8ddJ)
.	.	4f)	.	(8gg#L
.	.	.	.	8aaJ)
=174	=174	=174	=174	=174
4D	4Cc	(4e	2G	(4cc
4D	4V	4d)	.	4b)
*	*	*v	*v	*
*-	*-	*-	*-
!!!COM: Beethoven
!!!OTL: Acht Variationen uber "Une fievre brulante" aus "Richard Coeur de Lion" von A.E.M. Gretry
!!!Variation: Variation 5 b
**function	**harm	**kern	**kern
*	*	*clefF4	*clefG2
*	*	*k[]	*k[]
*M3/4	*M3/4	*M3/4	*M3/4
*C:	*C:	*C:	*C:
4D	4Vb	4B 4d	4r
=175	=175	=175	=175
2.D	2.Vb	2B 2d	12r
.	.	.	(12ccc#L
.	.	.	12dddJ
.	.	.	12eeeL
.	.	.	12ccc#
.	.	.	12dddJ)
.	.	(4B 4d	12r
.	.	.	(12ccc#L
.	.	.	12dddJ)
=176	=176	=176	=176
2. D	2.vi ii/V	2A) 2c	12r
.	.	.	(12ccc#L
.	.	.	12dddJ
.	.	.	12eeeL
.	.	.	12ccc#
.	.	.	12dddJ)
.	.	(4A 4c	12r
.	.	.	(12ccc#L
.	.	.	12dddJ)
=177	=177	=177	=177
2.D	2.Vb/V	4F#) 4A	12r
.	.	.	(12ccc#L
.	.	.	12dddJ)
.	.	(4F# 4A	12r
.	.	.	(12ccc#L
.	.	.	12dddJ)
.	.	4G 4B-	12r
.	.	.	(12ccc#L
.	.	.	12dddJ)
=178	=178	=178	=178
2D	2Vb/V	4G# 4B	12r
.	.	.	(12ccc#L
.	.	.	12dddJ)
.	.	4A) 4c	12r
.	.	.	(12ccc#L
.	.	.	12dddJ)
4D	4viiom7c/V	(4C	12r
.	.	.	(12eeeL
.	.	.	12ff#J)
=179	=179	=179	=179
*	*	*^	*
2.D	2.Ib/V	4BB	2.BB	12r
.	.	.	.	(12ggL
.	.	.	.	12bbJ)
.	.	4D	.	12r
.	.	.	.	(12ddL
.	.	.	.	12ggJ)
.	.	4G	.	12r
.	.	.	.	(12bL
.	.	.	.	12ddJ)
=180	=180	=180	=180	=180
2.P	2.ii7b/V	4C	2.C	12r
.	.	.	.	(12eeL
.	.	.	.	12ggJ)
.	.	4E	.	12r
.	.	.	.	(12ccL
.	.	.	.	12eeJ)
.	.	4A)	.	12r
.	.	.	.	(12aL
.	.	.	.	12ccJ)
=181	=181	=181	=181	=181
2D	2Ic/V	4r	2.D	12r
.	.	.	.	(12bL
.	.	.	.	12ddJ)
.	.	4B	.	12r
.	.	.	.	(12gL
.	.	.	.	12bJ)
4D	4V7/V	4c	.	12r
.	.	.	.	(12dL
.	.	.	.	12f#J)
*	*	*v	*v	*
=182	=182	=182	=182
2T	2I/V	4G 4B	8gL
.	.	.	(8ggJ
.	.	4r	8ff#L
.	.	.	8ggJ
*-	*-	*-	*-
!!!COM: Beethoven
!!!OTL: Acht Variationen uber "Une fievre brulante" aus "Richard Coeur de Lion" von A.E.M. Gretry
!!!Variation: Variation 5 c
**function	**harm	**kern	**kern
*	*	*clefG2	*clefG2
*	*	*k[]	*k[]
*M3/4	*M3/4	*M3/4	*M3/4
*C:	*C:	*C:	*C:
4D	4Vb	4B 4d	8ff#L
.	.	.	8ggJ)
=183	=183	=183	=183
2D	2Vb	(4B 4d	12r
.	.	.	(12ff#L
.	.	.	12ggJ)
.	.	4c# 4e	12r
.	.	.	(12ff#L
.	.	.	12ggJ)
4D	4V7c/IV	4d 4f	12r
.	.	.	(12ff#L
.	.	.	12ggJ)
=184	=184	=184	=184
2.D	2.iii	4e) 4g	12r
.	.	.	(12ff#L
.	.	.	12ggJ
.	.	4r	12aaL
.	.	.	12ff#
.	.	.	12ggJ)
.	.	4r	([4eee
=185	=185	=185	=185
2.D	2.V7b/ii	2.c# 2.e 2.a	8eeeL]
.	.	.	8dddJ
.	.	.	8ccc#L
.	.	.	8bb-J
.	.	.	8aaL
.	.	.	8ggJ)
=186	=186	=186	=186
2.D	2.ii	4d 4f 4a	(4ee
.	.	4r	4ff)
.	.	4d 4f	4ff
=187	=187	=187	=187
2.D	2.viio	(4d 4f	12r
.	.	.	(12eeL
.	.	.	12ffJ)
.	.	4B) 4d	12r
.	.	.	(12eeL
.	.	.	12ffJ)
.	.	4B 4d	12r
.	.	.	(12eeL
.	.	.	12ffJ)
=188	=188	=188	=188
*	*	*^	*
2.D	2.V7	4d 4f	4r	12r
.	.	.	.	(12eeL
.	.	.	.	12ffJ)
.	.	4G	2G	(8fffL
.	.	.	.	8dddJ)
.	.	4d 4f	.	8bb'L
.	.	.	.	8ff'J
=189	=189	=189	=189	=189
2.D	2.Ic	4c 4e	4r	12r
.	.	.	.	(12dd#L
.	.	.	.	12eeJ)
.	.	4G	2G	(8eeeL
.	.	.	.	8cccJ)
.	.	4c 4e	.	8gg'L
.	.	.	.	8ee'J
=190	=190	=190	=190	=190
2.D	2.V	4B 4d	4G	8dd'L
.	.	.	.	8ee'J
*	*	*v	*v	*
.	.	4r	8ff'L
.	.	.	8gg'J
.	.	4r	8aa'L
.	.	.	8bb'J
*-	*-	*-	*-
!!!!SEGMENT: 
!!!COM: Beethoven
!!!OTL: Acht Variationen uber "Une fievre brulante" aus "Richard Coeur de Lion" von A.E.M. Gretry
!!!Variation: Variation 5 d
**function	**harm	**kern	**kern
*	*	*clefG2	*clefG2
*	*	*k[]	*k[]
*M3/4	*M3/4	*M3/4	*M3/4
*C:	*C:	*C:	*C:
=191	=191	=191	=191
2T	2Ib	(2e 2g	12r
.	.	.	(12bbL
.	.	.	12cccJ
.	.	.	12dddL
.	.	.	12bb
.	.	.	12cccJ
4T	4I	4c) 4e	12dddL
.	.	.	12bb
.	.	.	12cccJ)
=192	=192	=192	=192
2T	2IV	(2f 2a	12r
.	.	.	(12bbL
.	.	.	12cccJ
.	.	.	12dddL
.	.	.	12bb
.	.	.	12cccJ
4T	4Ib	4e) 4g	12dddL
.	.	.	12bb
.	.	.	12cccJ)
=193	=193	=193	=193
2T	2Ib	(2e 2g	12r
.	.	.	(12bbL
.	.	.	12cccJ
.	.	.	12dddL
.	.	.	12bb
.	.	.	12cccJ
4T	4viiob	4d) 4f	12dddL
.	.	.	12bb
.	.	.	12cccJ)
=194	=194	=194	=194
2T	2I	4c 4e	(12dddL
.	.	.	12bb
.	.	.	12cccJ
.	.	4r	12dddL
.	.	.	12bb
.	.	.	12cccJ)
*	*	*clefF4	*
4T	4viioD7b/ii	(4E 4G 4B- 4c#	4ccc#
=195	=195	=195	=195
2.P	2.iib	4F) 4A 4d	4ddd
.	.	4r	4eee
.	.	4r	4fff
=196	=196	=196	=196
2.D	2.V7	2.G 2.d 2.f	8r
.	.	.	(16gLL
.	.	.	16aJJ
.	.	.	16bLL
.	.	.	16cc
.	.	.	16dd
.	.	.	16eeJJ
.	.	.	16ggLL
.	.	.	16ff
.	.	.	16dd
.	.	.	16bJJ)
=197	=197	=197	=197
2.T	2.I	([2.c 2.f	(4.dd
.	.	.	16cc#LL
.	.	.	16ddJJ
.	.	.	16cc#LL
.	.	.	16dd
.	.	.	16ee
.	.	.	16ddJJ)
=198	=198	=198	=198
2T	2I	4c]) 4e	4cc
.	.	4r	4r
*-	*-	*-	*-
!!!COM: Beethoven
!!!OTL: Acht Variationen uber "Une fievre brulante" aus "Richard Coeur de Lion" von A.E.M. Gretry
!!!Variation: Variation 6 a
**function	**harm	**kern	**kern
*	*	*clefF4	*clefF4
*	*	*k[]	*k[]
*M3/4	*M3/4	*M3/4	*M3/4
*C:	*C:	*C:	*C:
4T	4I	8.CC'L 8.C'	8.G'L 8.c' 8.e'
.	.	16CC'Jk 16C'	16G'Jk 16c' 16e'
=200	=200	=200	=200
2.T	2.I	4CC' 4C'	4G' 4c' 4e'
.	.	4r	4r
.	.	8.CC'L 8.C'	8.E'L 8.G' 8.c'
.	.	16CC'Jk 16C'	16E'Jk 16G' 16c'
=201	=201	=201	=201
2T	2IVc	4CC' 4C'	4A' 4c' 4f'
.	.	4r	4r
4T	4I	8.CC'L 8.C'	8.G'L 8.c' 8.e'
.	.	16CC'Jk 16C'	16G'Jk 16c' 16e'
=202	=202	=202	=202
2T	2I	4CC' 4C'	4G' 4c' 4e'
.	.	4r	4r
4T	4viioD7	8.CC'L 8.C'	8.F'L 8.A-' 8.B' 8.d'
.	.	16CC'Jk 16C'	16F'Jk 16A-' 16B' 16d'
=203	=203	=203	=203
2.T	2.I	4CC' 4C'	4E' 4G' 4c'
.	.	4r	4r
*	*	*clefG2	*clefG2
.	.	(16cLL	8r
.	.	16eJJ)	.
.	.	8r	(16ccLL
.	.	.	16eeJJ)
=204	=204	=204	=204
2.T	2.ii	(16dLL	8r
.	.	16fJJ)	.
.	.	8r	(16ddLL
.	.	.	16ffJJ)
.	.	(16eLL	8r
.	.	16gJJ)	.
.	.	8r	(16eeLL
.	.	.	16ggJJ)
.	.	(16fLL	8r
.	.	16aJJ)	.
.	.	8r	(16ffLL
.	.	.	16aaJJ)
=205	=205	=205	=205
2.T	2.V	(16gLL	8r
.	.	16bJJ)	.
.	.	8r	(16ggLL
.	.	.	16bbJJ)
.	.	(16aLL	8r
.	.	16ccJJ)	.
.	.	8r	(16aaLL
.	.	.	16cccJJ)
.	.	(16bLL	8r
.	.	16ddJJ)	.
.	.	8r	(16bbLL
.	.	.	16dddJJ)
=206	=206	=206	=206
2.T	2.I	(16ccLL	8r
.	.	16eeJJ)	.
.	.	8r	(16cccLL
.	.	.	16eeeJJ)
.	.	(16ddLL	8r
.	.	16ffJJ)	.
.	.	8r	(16dddLL
.	.	.	16fffJJ)
.	.	(16ccLL	8r
.	.	16eeJJ)	.
.	.	8r	(16cccLL
.	.	.	16eeeJJ)
=207	=207	=207	=207
2D	2V	4g 4dd	4bb 8ddd
.	.	4r	4r
*-	*-	*-	*-
!!!COM: Beethoven
!!!OTL: Acht Variationen uber "Une fievre brulante" aus "Richard Coeur de Lion" von A.E.M. Gretry
!!!Variation: Variation 6 b
**function	**harm	**kern	**kern
*	*	*clefF4	*clefF4
*	*	*k[]	*k[]
*M3/4	*M3/4	*M3/4	*M3/4
*C:	*C:	*C:	*C:
4T	4V	8.GGG'L 8.GG'	8.G'L 8.B' 8.d'
.	.	16GGG'Jk 16GG'	16G'Jk 16B' 16d'
=208	=208	=208	=208
2.T	2.I/V	4GGG' 4GG'	4G' 4B' 4d'
.	.	4r	4r
.	.	8.GGG'L 8.GG'	8.G'L 8.B' 8.d'
.	.	16GGG'Jk 16GG'	16G'Jk 16B' 16d'
=209	=209	=209	=209
2T	2viioD7b/V/V	4EE' 4E'	4G' 4B-' 4c#'
.	.	4r	4r
4T	4viioD7b/vi/V	8.FFF#'L 8.FF#'	8.D#'L 8.A' 8.c'
.	.	16FFF#'Jk 16FF#'	16D#'Jk 16A' 16c'
=210	=210	=210	=210
2T	2viioD7b/vi/V	4FFF#' 4FF#'	4D#' 4A' 4c'
.	.	4r	4r
4T	4viioD7/vi/V	8.D#'L	8.F#'L 8.A' 8.c'
.	.	16D#'Jk	16F#'Jk 16A' 16c'
=211	=211	=211	=211
2.T	2.viioD7/vi/V	4D#'	4F#' 4A' 4B'
.	.	4r	4r
*	*	*clefG2	*clefG2
.	.	(16d#LL	8r
.	.	16f#JJ)	.
.	.	8r	(16dd#LL
.	.	.	16ff#JJ)
=212	=212	=212	=212
2T	2vi/V	(16eLL	8r
.	.	16gJJ)	.
.	.	8r	(16eeLL
.	.	.	16ggJJ)
.	.	(16f#LL	8r
.	.	16aJJ)	.
.	.	8r	(16ff#LL
.	.	.	16aaJJ)
4T	4viio/ii/V	(16g#LL	8r
.	.	16bJJ)	.
.	.	8r	(16gg#LL
.	.	.	16bbJJ)
=213	=213	=213	=213
2P	2ii/V	(16aLL	8r
.	.	16ccJJ)	.
.	.	8r	(16aaLL
.	.	.	16cccJJ)
.	.	(16bLL	8r
.	.	16ddJJ)	.
.	.	8r	(16bbLL
.	.	.	16dddJJ)
4P	4IV/V	(16ccLL	8r
.	.	16eeJJ)	.
.	.	8r	(16cccLL
.	.	.	16eeeJJ)
=214	=214	=214	=214
2D	2Ic/V	(16dLL	8r
.	.	16gJJ)	.
.	.	8r	(16ddLL
.	.	.	16bbJJ)
.	.	(16dLL	8r
.	.	16gJJ)	.
.	.	8r	(16ddLL
.	.	.	16bbJJ)
4D	4V7/V	(16dLL	8r
.	.	16f#JJ)	.
.	.	8r	(16ccLL
.	.	.	16aaJJ)
=215	=215	=215	=215
2T	2I/V	4G 4g	4b 4gg
.	.	4r	4r
*-	*-	*-	*-
!!!COM: Beethoven
!!!OTL: Acht Variationen uber "Une fievre brulante" aus "Richard Coeur de Lion" von A.E.M. Gretry
!!!Variation: Variation 6 c
**function	**harm	**kern	**kern
*	*	*clefF4	*clefG2
*	*	*k[]	*k[]
*M3/4	*M3/4	*M3/4	*M3/4
*C:	*C:	*C:	*C:
4T	4V	8.GG'L 8.G'	8.B'L 8.g'
.	.	16GG'Jk 16G'	16B'Jk 16g'
=216	=216	=216	=216
4T	4V	4GG' 4G'	4B' 4g'
4T	4viiob/ii	4EE' 4E'	4G' 4c#' 4g'
4T	4ivc/ii	4DD' 4D'	4B-' 4d' 4g'
=217	=217	=217	=217
2.T	2.V7b/ii	4CC#' 4C#'	4A' 4e' 4g'
.	.	4r	4r
.	.	(16c#LL	8r
.	.	16eJJ)	.
.	.	8r	(16eeLL 16gg
.	.	.	16aJJ)
=218	=218	=218	=218
2.T	2.V7b/ii	(16c#LL	8r
.	.	16eJJ)	.
.	.	8r	(16eeLL 16gg
.	.	.	16aJJ)
.	.	(16dLL	8r
.	.	16fJJ)	.
.	.	8r	(16ddLL 16ff
.	.	.	16aJJ)
.	.	(16eLL	8r
.	.	16gJJ)	.
.	.	8r	(16cc#LL 16ee
.	.	.	16aJJ)
=219	=219	=219	=219
2.T	2.ii	4d 4f	4dd 4ff
.	.	4r	4r
.	.	8.DD'L 8.D'	8.F'L 8.A' 8.f'
.	.	16DD'Jk 16D'	16F'Jk 16A' 16f'
=220	=220	=220	=220
4T	4ii	4DD' 4D'	4F' 4A' 4f'
4T	4viiob	4DD' 4D'	4F' 4B' 4f'
4T	4ivc	4CC' 4C'	4A-' 4c' 4f'
=221	=221	=221	=221
2.T	2.V7b	4BBB' 4BB'	4G' 4d' 4f'
.	.	4r	4r
.	.	(16dLL	8r
.	.	16fJJ)	.
.	.	8r	(16bLL 16dd
.	.	.	16gJJ)
=222	=222	=222	=222
2.T	2.I	(16cLL	8r
.	.	16eJJ)	.
.	.	8r	(16ccLL 16ee
.	.	.	16gJJ)
.	.	(16BLL	8r
.	.	16dJJ)	.
.	.	8r	(16ddLL 16ff
.	.	.	16gJJ)
.	.	(16cLL	8r
.	.	16eJJ)	.
.	.	8r	(16ccLL 16ee
.	.	.	16gJJ)
=223	=223	=223	=223
2D	2V	4G 4d	4b 4dd
.	.	4r	4r
*-	*-	*-	*-
!!!COM: Beethoven
!!!OTL: Acht Variationen uber "Une fievre brulante" aus "Richard Coeur de Lion" von A.E.M. Gretry
!!!Variation: Variation 6 d
**function	**harm	**kern	**kern
*	*	*clefF4	*clefF4
*	*	*k[]	*k[]
*M3/4	*M3/4	*M3/4	*M3/4
*C:	*C:	*C:	*C:
4T	4I	8.CC'L 8.C'	8.G'L 8.c' 8.e'
.	.	16CC'Jk 16C'	16G'Jk 16c' 16e'
=224	=224	=224	=224
2.T	2.I	4CC' 4C'	4G' 4c' 4e'
.	.	4r	4r
.	.	8.CC'L 8.C'	8.E'L 8.G' 8.c'
.	.	16CC'Jk 16C'	16E'Jk 16G' 16c'
=225	=225	=225	=225
2T	2IVc	4CC' 4C'	4A' 4c' 4f'
.	.	4r	4r
4T	4I	8.CC'L 8.C'	8.G'L 8.c' 8.e'
.	.	16CC'Jk 16C'	16G'Jk 16c' 16e'
=226	=226	=226	=226
2T	2I	4CC' 4C'	4G' 4c' 4e'
.	.	4r	4r
4T	4viioD7	8.CC'L 8.C'	8.F'L 8.A-' 8.B' 8.d'
.	.	16CC'Jk 16C'	16F'Jk 16A-' 16B' 16d'
=227	=227	=227	=227
2.T	2.I	4CC' 4C'	4E' 4G' 4c'
.	.	4r	4r
.	.	(16CLL	8r
.	.	16cJJ)	.
*	*	*	*clefG2
.	.	8r	(16eeLL
.	.	.	16eJJ)
=228	=228	=228	=228
2.T	2.ii	(16DLL	8r
.	.	16dJJ)	.
.	.	8r	(16ffLL
.	.	.	16fJJ)
.	.	(16ELL	8r
.	.	16eJJ)	.
.	.	8r	(16ggLL
.	.	.	16gJJ)
.	.	(16FLL	8r
.	.	16fJJ)	.
.	.	8r	(16aaLL
.	.	.	16aJJ)
*	*	*clefG2	*
=229	=229	=229	=229
2.T	2.V	(16GLL	8r
.	.	16gJJ)	.
.	.	8r	(16bbLL
.	.	.	16bJJ)
.	.	(16ALL	8r
.	.	16aJJ)	.
.	.	8r	(16cccLL
.	.	.	16ccJJ)
.	.	(16BLL	8r
.	.	16bJJ)	.
.	.	8r	(16dddLL
.	.	.	16ddJJ)
=230	=230	=230	=230
4T	4I	(16cLL	8r
.	.	16ccJJ)	.
.	.	8r	(16eeeLL
.	.	.	16eeJJ)
4P	4ii	(16dLL	8r
.	.	16ddJJ)	.
.	.	8r	(16fffLL
.	.	.	16ffJJ)
4D	4V7	(16GLL	8r
.	.	16gJJ)	.
.	.	8r	(16bbLL
.	.	.	16ffJJ)
*	*	*clefF4	*
=231	=231	=231	=231
2T	2I	4C 4c	4ee 4ccc
.	.	4r	4r
*-	*-	*-	*-
!!!COM: Beethoven
!!!OTL: Acht Variationen uber "Une fievre brulante" aus "Richard Coeur de Lion" von A.E.M. Gretry
!!!Variation: Variation 7 a
**function	**harm	**kern	**kern
*	*	*clefF4	*clefF4
*	*	*k[]	*k[]
*M3/4	*M3/4	*M3/4	*M3/4
*C:	*C:	*C:	*C:
4T	4I	4r	4G 4c 4e
=233	=233	=233	=233
2.T	2.I	8r	2G 2c 2e
.	.	(8BBL	.
.	.	8C)	.
.	.	8C'J	.
.	.	8C'L	4E 4G 4c
.	.	8C'J	.
=234	=234	=234	=234
2T	2IVc	8r	2A 2c 2f
.	.	(8BBBL	.
.	.	8CC)	.
.	.	8CC'J	.
4T	4I	8CC'L	4G 4c 4e
.	.	8CC'J	.
*	*	*clefG2	*
=235	=235	=235	=235
2.T	2.I	8r	2G 2c 2e
.	.	(8bL	.
.	.	8cc)	.
.	.	8cc'J	.
.	.	8cc'L	4F 4G 4d
.	.	8cc'J	.
=236	=236	=236	=236
2.T	2.Ib	8r	4E 4G 4c
.	.	(8bbL	.
.	.	8ccc)	4r
.	.	8ccc'J	.
.	.	8ccc'L	4E 4G 4c
.	.	8ccc'J	.
=237	=237	=237	=237
2.D	2.V	8r	2G 2B 2d
.	.	(8ff#L	.
.	.	8gg)	.
.	.	8gg'J	.
.	.	8gg'L	4G 4c 4e
.	.	8gg'J	.
=238	=238	=238	=238
2.D	2.V7	8r	2G 2d 2f
.	.	(8f#L	.
.	.	8g)	.
.	.	8g'J	.
.	.	8g'L	4G 4c 4e
.	.	8g'J	.
=239	=239	=239	=239
2.D	2.V	8r	[2.G [2.B [2.d
*	*	*clefF4	*
.	.	(8FF#L	.
.	.	8GG)	.
.	.	8GG'J	.
.	.	8GG'L	.
.	.	8GG'J	.
=240	=240	=240	=240
2D	2V	(8GGL	2G] 2B] 2d]
.	.	8BB	.
.	.	8D	.
.	.	8BBJ)	.
*-	*-	*-	*-
!!!COM: Beethoven
!!!OTL: Acht Variationen uber "Une fievre brulante" aus "Richard Coeur de Lion" von A.E.M. Gretry
!!!Variation: Variation 7 b
**function	**harm	**kern	**kern
*	*	*clefF4	*clefF4
*	*	*k[]	*k[]
*M3/4	*M3/4	*M3/4	*M3/4
*C:	*C:	*C:	*C:
4D	4V	4GG	4G 4B 4d
=241	=241	=241	=241
2.D	2.V7/vi	8r	2G# 2B 2d
.	.	(8DD#L	.
.	.	8EE)	.
.	.	8EE'	.
.	.	8EE'	4G# 4B 4d
.	.	8EE'J	.
=242	=242	=242	=242
2. D	2.vi ii/V	8r	2E 2A 2c
.	.	(8GG#L	.
.	.	8AA)	.
.	.	8AA'	.
.	.	8AA'	4E 4A 4c
.	.	8AA'J	.
=243	=243	=243	=243
2.D	2.V/V	8r	[2.F# [2.A
.	.	(8C#L	.
.	.	8D)	.
.	.	8D'	.
.	.	8D'	.
.	.	8D'J	.
=244	=244	=244	=244
2D	2V/V	(8C#L	2F#] 2A]
.	.	8DJ	.
.	.	8CL	.
.	.	8DJ	.
4D	4Ib/V	8BBL	4G 4B
.	.	8DJ)	.
=245	=245	=245	=245
2.P	2.iib/V	8r	2E 2A 2c
.	.	(8BBBL	.
.	.	8CC)	.
.	.	8CC'	.
.	.	8CC'	4E 4A 4c
.	.	8CC'J	.
=246	=246	=246	=246
2.P	2.V7/V	8r	2C 2F# 2A
.	.	(8CC#L	.
.	.	8DD)	.
.	.	8DD'J	.
.	.	8DD'L	4C 4F# 4A
.	.	8DD'J	.
=247	=247	=247	=247
2.D	2.V7b/V	8r	2.C 2.D 2.A
.	.	(8FFF#L	.
.	.	8GGG)	.
.	.	(8BBB	.
.	.	8DD)	.
.	.	(8FF#J	.
=248	=248	=248	=248
2T	2I/V	4GG)	4BB 4D 4G
.	.	4GGG	4r
*-	*-	*-	*-
!!!COM: Beethoven
!!!OTL: Acht Variationen uber "Une fievre brulante" aus "Richard Coeur de Lion" von A.E.M. Gretry
!!!Variation: Variation 7 c
**function	**harm	**kern	**kern
*	*	*clefF4	*clefG2
*	*	*k[]	*k[]
*M3/4	*M3/4	*M3/4	*M3/4
*C:	*C:	*C:	*C:
4T	4Vb	4r	4B 4d 4g
=249	=249	=249	=249
2.T	2.V	8r	2B 2d 2g
.	.	(8F#L	.
.	.	8G)	.
.	.	8G'	.
.	.	8G'	4B 4d 4g
.	.	8G'J	.
=250	=250	=250	=250
2.T	2.iii	8r	2B 2e 2g
.	.	(8D#L	.
.	.	8E)	.
.	.	8E'	.
.	.	8E'	4B 4e 4g
.	.	8E'J	.
*	*	*clefG2	*
=251	=251	=251	=251
2.T	2.V7/ii	8r	2.A 2.e 2.g
.	.	(8b#L	.
.	.	8cc#)	.
.	.	8cc#'	.
.	.	8cc#'	.
.	.	8cc#'J	.
=252	=252	=252	=252
2.T	2.ii	8r	2A 2d 2f
.	.	(8cc#L	.
.	.	8dd)	.
.	.	8dd'	.
*	*	*	*clefF4
.	.	8dd'	4A 4d 4f
.	.	8dd'J	.
*	*	*clefF4	*
=253	=253	=253	=253
2.T	2.ii	8r	2A 2d 2f
.	.	(8C#L	.
.	.	8D)	.
.	.	8D'	.
.	.	8D'	4A 4d 4f
.	.	8D'J	.
=254	=254	=254	=254
2.T	2.V7b	8r	2G 2d 2f
.	.	(8AA#L	.
.	.	8BB)	.
.	.	8BB'	.
.	.	8BB'	4G 4d 4f
.	.	8BB'J	.
=255	=255	=255	=255
2.T	2.I	8r	2G 2c 2e
.	.	(8BBL	.
.	.	8C)	.
.	.	8C'	.
.	.	8C'	4E 4G 4c
.	.	8C'J	.
=256	=256	=256	=256
2D	2V	8r	4G 4B 4d
.	.	(8GGL	.
.	.	8FF#	4r
.	.	8FF	.
*-	*-	*-	*-
!!!COM: Beethoven
!!!OTL: Acht Variationen uber "Une fievre brulante" aus "Richard Coeur de Lion" von A.E.M. Gretry
!!!Variation: Variation 7 d
**function	**harm	**kern	**kern
*	*	*clefF4	*clefF4
*	*	*k[]	*k[]
*M3/4	*M3/4	*M3/4	*M3/4
*C:	*C:	*C:	*C:
4T	4I	8EE	4G 4c 4e
.	.	8DDJ)	.
=257	=257	=257	=257
2.T	2.I	8r	2G 2c 2e
.	.	(8BBBL	.
.	.	8CC)	.
.	.	8CC'	.
.	.	8CC'	4E 4G 4c
.	.	8CC'J	.
=258	=258	=258	=258
2T	2IVc	8r	2A 2c 2f
.	.	(8BBL	.
.	.	8C)	.
.	.	8C'	.
4T	4I	8C'	4G 4c 4e
.	.	8C'J	.
*	*	*clefG2	*
=259	=259	=259	=259
2.T	2.I	8r	2G 2c 2e
.	.	(8bL	.
.	.	8cc)	.
.	.	8cc'	.
.	.	8cc'	4F 4G 4d
.	.	8cc'J	.
=260	=260	=260	=260
2.T	2.Ib	8r	4E 4G 4c
.	.	(8bbL	.
.	.	8ccc)	4r
.	.	8ccc'	.
.	.	8ccc'	4E 4G 4c
.	.	8ccc'J	.
=261	=261	=261	=261
2.D	2.V	8r	2G 2B 2d
.	.	(8ff#L	.
.	.	8gg)	.
.	.	8gg'	.
.	.	8gg'	4G 4c 4e
.	.	8gg'J	.
=262	=262	=262	=262
2.D	2.V7	8r	2G 2d 2f
.	.	(8f#L	.
.	.	8g)	.
.	.	8g'	.
.	.	8g'	4F 4B
.	.	8g'J	.
=263	=263	=263	=263
2.D	2.V7	8r	2.F 2.B 2.d
*	*	*clefF4	*
.	.	(8FF#L	.
.	.	8GG)	.
.	.	8GG'	.
.	.	8GG'	.
.	.	8GG'J	.
=264	=264	=264	=264
2T	2I	4CC 4C	4E 4G 4c
.	.	4r	4r
*-	*-	*-	*-
!!!COM: Beethoven
!!!OTL: Acht Variationen uber "Une fievre brulante" aus "Richard Coeur de Lion" von A.E.M. Gretry
!!!Variation: Variation 8 a
**function	**harm	**kern	**kern
*	*	*clefF4	*clefG2
*	*	*k[]	*k[]
*M2/4	*M2/4	*M2/4	*M2/4
*C:	*C:	*C:	*C:
8T	8I	8r	8g' 8ee'
=266	=266	=266	=266
2T	2I	8CL	4g' 4ee'
.	.	8c	.
.	.	8c	8r
.	.	8cJ	8e' 8cc'
=267	=267	=267	=267
4.T	4.IVc	8CL	4a' 4ff'
.	.	8c	.
.	.	8c	8r
8T	8I	8cJ	8g' 8ee'
=268	=268	=268	=268
2T	2I	8gL	4ee
.	.	8c	.
.	.	8f	8.ddL
.	.	8cJ	.
.	.	.	32ccLL
.	.	.	32ddJJJ
=269	=269	=269	=269
2T	2I	8eL	4cc
.	.	8c	.
.	.	8c	8r
.	.	8cJ	8cc
=270	=270	=270	=270
4T	4V	8BL	8dd
.	.	8G	8r
4T	4Ic	8c	8.eeL
.	.	8GJ	.
.	.	.	32ddLL
.	.	.	32eeJJJ
=271	=271	=271	=271
4P	4IVb	8AL	8ff
.	.	8c	8r
4P	4Ic	8G	8.eeL
.	.	8cJ	.
.	.	.	32ddLL
.	.	.	32eeJJJ
=272	=272	=272	=272
4P	4iib	8FL	8dd
.	.	8c	8r
4P	4V7b/V	8F#	8dd
.	.	8cJ	8r
=273	=273	=273	=273
4.D	4.V	8GL	4dd
.	.	8B	.
.	.	8d	8r
*-	*-	*-	*-
!!!COM: Beethoven
!!!OTL: Acht Variationen uber "Une fievre brulante" aus "Richard Coeur de Lion" von A.E.M. Gretry
!!!Variation: Variation 8 b
**function	**harm	**kern	**kern
*	*	*clefF4	*clefG2
*	*	*k[]	*k[]
*M2/4	*M2/4	*M2/4	*M2/4
*C:	*C:	*C:	*C:
8D	8Vb	8gJ	8dd 8ddd
=274	=274	=274	=274
2D	2Vb	4r	(8cc#L 8ccc#
.	.	.	8ddJ) 8ddd
*	*	*clefG2	*
.	.	4b'	8r
.	.	.	8dd' 8ddd'
=275	=275	=275	=275
2 D	2vi ii/V	4r	(8ddL 8ddd
.	.	.	8ccJ) 8ccc
.	.	4a'	8r
.	.	.	8cc' 8ccc'
=276	=276	=276	=276
2D	2V/V	4r	(8bL 8bb
.	.	.	8aJ) 8aa
.	.	4d 4f#	8r
.	.	.	8a' 8aa'
=277	=277	=277	=277
4D	4V/V	4d 4f#	8r
.	.	.	8a 8aa
4D	4viioc/V	4c 4f#	8r
.	.	.	8a 8aa
=278	=278	=278	=278
2D	2I/V	8GL	8bb
.	.	8g	8r
.	.	8B	8.ggL
.	.	8bJ	.
.	.	.	32ff#LL
.	.	.	32ggJJJ
=279	=279	=279	=279
2P	2IV/V	8cL	8ee
.	.	8g	8r
.	.	8e	8.ccL
.	.	8gJ	.
.	.	.	32bLL
.	.	.	32ccJJJ
=280	=280	=280	=280
4D	4Ic/V	8dL	8b
.	.	8g	8r
4D	4V/V	8d	8.aL
.	.	8f#J	.
.	.	.	32gLL
.	.	.	32aJJJ
=281	=281	=281	=281
2T	2I/V	8G	4g
.	.	(8gL	.
.	.	8f#	8r
.	.	8fJ)	8g
*-	*-	*-	*-
!!!COM: Beethoven
!!!OTL: Acht Variationen uber "Une fievre brulante" aus "Richard Coeur de Lion" von A.E.M. Gretry
!!!Variation: Variation 8 a2
**function	**harm	**kern	**kern
*	*	*clefG2	*clefG2
*	*	*k[]	*k[]
*M2/4	*M2/4	*M2/4	*M2/4
*C:	*C:	*C:	*C:
=282	=282	=282	=282
*	*	*^	*
2T	2I	(4e	2c	(16eeLL
.	.	.	.	16cc
.	.	.	.	16b
.	.	.	.	16ccJJ
.	.	4g)	.	16ddLL
.	.	.	.	16cc
.	.	.	.	16b
.	.	.	.	16ccJJ)
=283	=283	=283	=283	=283
4T	4IVc	(4a	2c	(16ffLL
.	.	.	.	16cc
.	.	.	.	16b
.	.	.	.	16ccJJ)
4T	4I	4g)	.	(16eeLL
.	.	.	.	16cc
.	.	.	.	16b
.	.	.	.	16ccJJ)
=284	=284	=284	=284	=284
4T	4I	(4g	2c	(16eeLL
.	.	.	.	16cc
.	.	.	.	16b
.	.	.	.	16ccJJ)
4T	4viio	4f)	.	(16ddLL
.	.	.	.	16b
.	.	.	.	16a
.	.	.	.	16bJJ)
*	*	*v	*v	*
=285	=285	=285	=285
2T	2I	4e 4c	(16ccLL
.	.	.	16g
.	.	.	16f#
.	.	.	16gJJ
.	.	4r	16aLL
.	.	.	16g
.	.	.	16f#
.	.	.	16gJJ)
*	*	*clefF4	*
=286	=286	=286	=286
4T	4Vb	4B'	16dLL
.	.	.	16g
.	.	.	16dd
.	.	.	16gJJ
4T	4I	4c'	16eLL
.	.	.	16g
.	.	.	16ee
.	.	.	16gJJ
=287	=287	=287	=287
4P	4IVb	4A'	16fLL
.	.	.	16cc
.	.	.	16ff
.	.	.	16ccJJ
4P	4Ib	4E'	16gLL
.	.	.	16cc
.	.	.	16gg
.	.	.	16ccJJ
=288	=288	=288	=288
4P	4IV	4F'	16aLL
.	.	.	16cc
.	.	.	16aa
.	.	.	16ccJJ
4P	4ii	4D'	16aLL
.	.	.	16dd
.	.	.	16ff
.	.	.	16ddJJ
=289	=289	=289	=289
4.D	4.V	8r	4g 4b 4dd
.	.	8GL	.
.	.	8gJ	8r
*-	*-	*-	*-
!!!COM: Beethoven
!!!OTL: Acht Variationen uber "Une fievre brulante" aus "Richard Coeur de Lion" von A.E.M. Gretry
!!!Variation: Variation 8 b2
**function	**harm	**kern	**kern
*	*	*clefF4	*clefG2
*	*	*k[]	*k[]
*M2/4	*M2/4	*M2/4	*M2/4
*C:	*C:	*C:	*C:
8D	8Vb	8r	8dd
=290	=290	=290	=290
2D	2Vb	8BBL	16cc#LL
.	.	.	16dd
.	.	8DJ	16ee
.	.	.	16ddJJ
.	.	8GL	16dddLL
.	.	.	16dd
.	.	8BJ	16ddd
.	.	.	16ddJJ
=291	=291	=291	=291
2 D	2vi7 ii7/V	8AAL	16bLL
.	.	.	16cc
.	.	8EJ	16dd
.	.	.	16ccJJ
.	.	8GL	16cccLL
.	.	.	16cc
.	.	8AJ	16ccc
.	.	.	16ccJJ
=292	=292	=292	=292
2D	2V7/V	8DL	16bLL
.	.	.	16cc
.	.	8F#J	16dd
.	.	.	16ccJJ
.	.	8AL	16cccLL
.	.	.	16cc
.	.	8dJ	16ccc
.	.	.	16ccJJ
=293	=293	=293	=293
2D	2V7/V	8f#L	16cccLL
.	.	.	16bb
.	.	8aJ	16aa
.	.	.	16ggJJ
.	.	8dL	16ff#LL
.	.	.	16ee
.	.	8f#J	16dd
.	.	.	16ccJJ
=294	=294	=294	=294
4D	4I/V	8GL	16bLL
.	.	.	16cc
.	.	8gJ	16b
.	.	.	16aJJ
4D	4V7d/IV/V	8FL	16bLL
.	.	.	16g
.	.	8fJ	16a
.	.	.	16bJJ
=295	=295	=295	=295
4P	4IVb/V	8EL	16ccLL
.	.	.	16dd
.	.	8eJ	16ee
.	.	.	16ff#JJ
4P	4IV/V	8CL	16ggLL
.	.	.	16ee
.	.	8cJ	16dd
.	.	.	16ccJJ
=296	=296	=296	=296
4D	4Ic/V	8DL	16bLL
.	.	.	16dd
.	.	8dJ	16g
.	.	.	16bJJ
4D	4V7/V	8DDL	16aLL
.	.	.	16cc
.	.	8DJ	16f#
.	.	.	16aJJ
=297	=297	=297	=297
4.T	4.I/V	8r	4g
.	.	8GGL	.
.	.	8GJ	8r
*-	*-	*-	*-
!!!COM: Beethoven
!!!OTL: Acht Variationen uber "Une fievre brulante" aus "Richard Coeur de Lion" von A.E.M. Gretry
!!!Variation: Variation 8 c
**function	**harm	**kern	**kern
*	*	*clefG2	*clefG2
*	*	*k[]	*k[]
*M2/4	*M2/4	*M2/4	*M2/4
*C:	*C:	*C:	*C:
8T	8V	8r	8b' 8gg'
=298	=298	=298	=298
4T	4V	8r	8b'L 8gg'
.	.	8g'L	8b'J 8gg'
4T	4viiob/ii	8e'	8cc#'L 8gg'
.	.	8d'J	8dd'J 8gg'
=299	=299	=299	=299
2T	2V7/ii	8c#'	4ee 4gg
.	.	8A'L	.
.	.	8a'J	8r
.	.	8r	8ee 8gg
=300	=300	=300	=300
2T	2V7/ii	2r	(8eeL 8gg
.	.	.	8ddJ) 8ff
.	.	.	(8ddL 8ff
.	.	.	8cc#J) 8ee
=301	=301	=301	=301
2T	2ii	8r	4dd 4ff
.	.	(8g#L	.
.	.	8a)	8r
.	.	8g'J	8ff'
=302	=302	=302	=302
4T	4IV	8f'L	8ff'L
.	.	8e'J	8a'J 8ff'
4T	4viiob	8d'L	8b'L 8ff'
.	.	8c'J	8cc'J 8ff'
=303	=303	=303	=303
2T	2V7	8B'L	4dd 4ff
.	.	8A'J	.
.	.	8G'L	8r
.	.	8B'J	8dd' 8ff'
=304	=304	=304	=304
2T	2I	8c'L	8cc'L 8ee'
.	.	8d'J	8b'J 8dd'
.	.	8e'L	8g'L 8cc'
.	.	8c'J	8cc'J 8ee'
=305	=305	=305	=305
4.D	4.V	8G'L	4b 4dd
.	.	(8f#	.
.	.	8gJ)	8r
*-	*-	*-	*-
!!!COM: Beethoven
!!!OTL: Acht Variationen uber "Une fievre brulante" aus "Richard Coeur de Lion" von A.E.M. Gretry
!!!Variation: Variation 8 d
**function	**harm	**kern	**kern
*	*	*clefF4	*clefG2
*	*	*k[]	*k[]
*M2/4	*M2/4	*M2/4	*M2/4
*C:	*C:	*C:	*C:
8T	8I	8r	8g 8ee
=306	=306	=306	=306
2T	2I	8CL	4g 4ee
.	.	8c	.
.	.	8c	8r
.	.	8cJ	8e 8cc
=307	=307	=307	=307
4T	4IVc	8CL	4a 4ff
.	.	8c	.
4T	4I	8c	8r
.	.	8cJ	8g 8ee
=308	=308	=308	=308
2T	2I	8gL	4ee
.	.	8c	.
.	.	8f	8.ddL
.	.	8cJ	.
.	.	.	32ccLL
.	.	.	32ddJJJ
=309	=309	=309	=309
2T	2I	8eL	4cc
.	.	8c	.
.	.	8c	8r
.	.	8cJ	8cc
=310	=310	=310	=310
4T	4V	8BL	4dd
.	.	8G	.
4T	4Ic	8c	8.eeL
.	.	8GJ	.
.	.	.	32ddLL
.	.	.	32eeJJJ
=311	=311	=311	=311
4P	4IVb	8AL	4ff
.	.	8c	.
4P	4Ic	8G	8r
.	.	8cJ	8ee
=312	=312	=312	=312
4P	4ii7b	8FL	(8ddL
.	.	8c	8ccJ)
4D	4V	8G	8dd'L
.	.	8BJ	8ee'J
=313	=313	=313	=313
4.T	4.I	8r	4cc
.	.	8CL	.
.	.	8cJ	8r
*-	*-	*-	*-
!!!COM: Beethoven
!!!OTL: Acht Variationen uber "Une fievre brulante" aus "Richard Coeur de Lion" von A.E.M. Gretry
!!!Variation: Variation 8 c2
**function	**harm	**kern	**kern
*	*	*clefF4	*clefG2
*	*	*k[]	*k[]
*M2/4	*M2/4	*M2/4	*M2/4
*C:	*C:	*C:	*C:
8T	8V	8r	16gLL
.	.	.	16ggJJ
=314	=314	=314	=314
4T	4V	8r	16bLL
.	.	.	16gg
*	*	*clefG2	*
.	.	8gL	16b
.	.	.	16ggJJ
4T	4viiob/ii	8e	16cc#LL
.	.	.	16gg
.	.	8dJ	16dd
.	.	.	16ggJJ
=315	=315	=315	=315
2T	2V7b/ii	4c#	16eeLL
.	.	.	16a
.	.	.	16cc#
.	.	.	16eeJJ
.	.	4r	16ggLL
.	.	.	16aa
.	.	.	16ccc#
.	.	.	16aaJJ
=316	=316	=316	=316
2T	2V7b/ii	4c# 4a	16eeeLL
.	.	.	16ddd
.	.	.	16ccc#
.	.	.	16bbJJ
.	.	4c# 4a	16aaLL
.	.	.	16gg
.	.	.	16ff
.	.	.	16eeJJ
=317	=317	=317	=317
2T	2ii	4d 4a	16ggLL
.	.	.	16ff
.	.	.	16ee
.	.	.	16ffJJ
.	.	4r	16eeLL
.	.	.	16ff
.	.	.	16gg
.	.	.	16ffJJ
=318	=318	=318	=318
4T	4IV	8r	16aLL
.	.	.	16ff
.	.	8fL	16a
.	.	.	16ffJJ
4T	4viiob	8d	16bLL
.	.	.	16ff
.	.	8cJ	16cc
.	.	.	16ffJJ
=319	=319	=319	=319
2T	2V7b	4B 4g	16ddLL
.	.	.	16bb
.	.	.	16ddd
.	.	.	16cccJJ
.	.	4r	16bbLL
.	.	.	16aa
.	.	.	16gg
.	.	.	16ffJJ
=320	=320	=320	=320
2T	2I	4c 4g	16eeLL
.	.	.	16gg
.	.	.	16ccc
.	.	.	16bbJJ
.	.	4r	16aaLL
.	.	.	16gg
.	.	.	16ff
.	.	.	16eeJJ
*	*	*clefF4	*
=321	=321	=321	=321
2D	2V	4G 4B	16ddLL
.	.	.	16g
.	.	.	16f#
.	.	.	16gJJ
.	.	4r	16aLL
.	.	.	16b
.	.	.	16cc
.	.	.	16ddJJ
*-	*-	*-	*-
!!!COM: Beethoven
!!!OTL: Acht Variationen uber "Une fievre brulante" aus "Richard Coeur de Lion" von A.E.M. Gretry
!!!Variation: Variation 8 d2
**function	**harm	**kern	**kern
*	*	*clefF4	*clefG2
*	*	*k[]	*k[]
*M2/4	*M2/4	*M2/4	*M2/4
*C:	*C:	*C:	*C:
=322	=322	=322	=322
*	*	*^	*
2T	2I	8r	2C	16eeLL
.	.	.	.	16cc
.	.	8c	.	16b
.	.	.	.	16ccJJ
.	.	8EL	.	16ddLL
.	.	.	.	16cc
.	.	8cJ	.	16b
.	.	.	.	16ccJJ
=323	=323	=323	=323	=323
4T	4IVc	8AL	2C	16ffLL
.	.	.	.	16cc
.	.	8cJ	.	16b
.	.	.	.	16ccJJ
4T	4I	8GL	.	16eeLL
.	.	.	.	16cc
.	.	8cJ	.	16b
.	.	.	.	16ccJJ
=324	=324	=324	=324	=324
2T	2I	8GL	2C	16eeLL
.	.	.	.	16cc
.	.	8cJ	.	16b
.	.	.	.	16ccJJ
.	.	8FL	.	16ddLL
.	.	.	.	16b
.	.	8cJ	.	16a
.	.	.	.	16bJJ
=325	=325	=325	=325	=325
2T	2I	8EL	2C	16ccLL
.	.	.	.	16g
.	.	8cJ	.	16f#
.	.	.	.	16gJJ
.	.	8GL	.	16aLL
.	.	.	.	16g
.	.	8cJ	.	16f#
.	.	.	.	16gJJ
*	*	*v	*v	*
=326	=326	=326	=326
4T	4Vb	8BBL	16dLL
.	.	.	16g
.	.	8BJ	16dd
.	.	.	16gJJ
4T	4I	8CL	16eLL
.	.	.	16g
.	.	8cJ	16ee
.	.	.	16gJJ
=327	=327	=327	=327
4P	4IVb	8AAL	16fLL
.	.	.	16cc
.	.	8AJ	16ff
.	.	.	16ccJJ
4P	4iib	8FFL	16gLL
.	.	.	16dd
.	.	8FJ	16ff
.	.	.	16ddJJ
=328	=328	=328	=328
4D	4Ic	8GGL	16fLL
.	.	.	16cc
.	.	8GJ	16dd
.	.	.	16ccJJ
4D	4V7	8GGGL	16fLL
.	.	.	16b
.	.	8GGJ	16dd
.	.	.	16bJJ
=329	=329	=329	=329
2T	2I	2r;	2r;
=330	=330	=330	=330
*-	*-	*-	*-
!!!COM: Beethoven
!!!OTL: Acht Variationen uber "Une fievre brulante" aus "Richard Coeur de Lion" von A.E.M. Gretry
!!!Variation: Variation 8 e
**function	**harm	**kern	**kern
*	*	*clefF4	*clefG2
*	*	*k[]	*k[]
*M2/4	*M2/4	*M2/4	*M2/4
*C:	*C:	*C:	*C:
=331	=331	=331	=331
2T	2I/-VI	12AA-L	2r
.	.	12E-	.
.	.	12A-J	.
.	.	12AA-L	.
.	.	12E-	.
.	.	12A-J	.
=332	=332	=332	=332
2T	2I/-VI	12AA-L	4r
.	.	12E-	.
.	.	12A-J	.
.	.	12AA-L	8r
.	.	12E-	.
.	.	.	8c 8cc
.	.	12A-J	.
=333	=333	=333	=333
2T	2I/-VI	12AA-L	(4c 4cc
.	.	12E-	.
.	.	12A-J	.
.	.	12AA-L	4a-
.	.	12C	.
.	.	12A-J	.
=334	=334	=334	=334
4T	4IVc/-VI	12AA-L	4d- 4dd-
.	.	12F	.
.	.	12A-J	.
4T	4I/-VI	12r	4c 4cc
.	.	12AA-L	.
.	.	12A-J	.
=335	=335	=335	=335
2T	2I/-VI	12AA-L	4c 4cc
.	.	12E-	.
.	.	12A-J	.
.	.	12AA-L	4B- 4b-
.	.	12D-	.
.	.	12GJ	.
=336	=336	=336	=336
2T	2I/-VI	12AA-L	2A-) 2a-
.	.	12C	.
.	.	12E-J	.
.	.	12AA-L	.
.	.	12C	.
.	.	12E-J	.
=337	=337	=337	=337
4T	4Vb/-VI	12GGL	(4B- 4b-
.	.	12E-	.
.	.	12GJ	.
4T	4I/-VI	12AA-L	4c 4cc
.	.	12E-	.
.	.	12A-J	.
=338	=338	=338	=338
4P	4IVb/-VI	12FL	4d- 4dd-
.	.	12A-	.
.	.	12d-J	.
4P	4Ic/-VI	12E-L	4e- 4ee-
.	.	12A-	.
.	.	12cJ	.
=339	=339	=339	=339
4P	4IV/-VI	12D-L	4f 4ff
.	.	12A-	.
.	.	12d-J	.
4P	4IVb/-VI	12FL	4d- 4dd-
.	.	12A-	.
.	.	12d-J	.
=340	=340	=340	=340
2D	2V/-VI	12E-L	2b-)
.	.	12G	.
.	.	12B-J	.
.	.	12E-L	.
.	.	12G	.
.	.	12B-J	.
*-	*-	*-	*-
!!!COM: Beethoven
!!!OTL: Acht Variationen uber "Une fievre brulante" aus "Richard Coeur de Lion" von A.E.M. Gretry
!!!Variation: Variation 8 f
**function	**harm	**kern	**kern
*	*	*clefF4	*clefG2
*	*	*k[]	*k[]
*M2/4	*M2/4	*M2/4	*M2/4
*C:	*C:	*C:	*C:
=341	=341	=341	=341
2	2I/-VI	12AA-L	(4c 4cc
.	.	12E-	.
.	.	12A-J	.
.	.	12AA-L	4A- 4a-
.	.	12C	.
.	.	12GJ	.
=342	=342	=342	=342
4	4IVc/-VI	12AA-L	4d- 4dd-
.	.	12F	.
.	.	12A-J	.
4	4I/-VI	12AA-L	4c 4cc
.	.	12E-	.
.	.	12A-J	.
=343	=343	=343	=343
2	2I/-VI	12AA-L	4c 4cc
.	.	12E-	.
.	.	12A-J	.
.	.	12AA-L	4B-) 4b-
.	.	12D-	.
.	.	12GJ	.
=344	=344	=344	=344
2	2I/-VI	12AA-L	(2A- 2a-
.	.	12C	.
.	.	12E-J	.
.	.	12AA-L	.
.	.	12C	.
.	.	12E-J	.
=345	=345	=345	=345
2	2V7/ii/-VI	12FFL	2A 2a
.	.	12C	.
.	.	12E-J	.
.	.	12FFL	.
.	.	12C	.
.	.	12E-J	.
=346	=346	=346	=346
2P	2ii/-VI	12BB-L	2B- 2b-
.	.	12D-	.
.	.	12FJ	.
.	.	12BB-L	.
.	.	12D-	.
.	.	12FJ	.
=347	=347	=347	=347
2D	2V7	12GGL	2B 2b
.	.	12D	.
.	.	12FJ	.
.	.	12GGL	.
.	.	12D	.
.	.	12FJ	.
=348	=348	=348	=348
2D	2V7	12GGL	2f) 2b 2ff
.	.	12D	.
.	.	12FJ	.
.	.	12GGL	.
.	.	12D	.
.	.	12FJ	.
*-	*-	*-	*-
!!!!SEGMENT: 
!!!COM: Beethoven
!!!OTL: Acht Variationen uber "Une fievre brulante" aus "Richard Coeur de Lion" von A.E.M. Gretry
!!!Variation: Variation 8 g
**function	**harm	**kern	**kern
*	*	*clefF4	*clefG2
*	*	*k[]	*k[]
*M2/4	*M2/4	*M2/4	*M2/4
*C:	*C:	*C:	*C:
=349	=349	=349	=349
2T	2I	16CLL	16eLL
.	.	16E	16g
.	.	16G	16cc
.	.	16cJJ	16eeJJ
.	.	16CLL	16cLL
.	.	16E	16e
.	.	16G	16g
.	.	16cJJ	16ccJJ
=350	=350	=350	=350
4T	4IVc	16CLL	16fLL
.	.	16F	16a
.	.	16A	16cc
.	.	16cJJ	16ffJJ
4T	4I	16CLL	16eLL
.	.	16E	16g
.	.	16G	16cc
.	.	16cJJ	16eeJJ
=351	=351	=351	=351
4T	4I	16CLL	16eLL
.	.	16E	16g
.	.	16G	16cc
.	.	16cJJ	16eeJJ
4T	4V7	16CLL	16dLL
.	.	16F	16f
.	.	16G	16g
.	.	16BJJ	16ddJJ
=352	=352	=352	=352
2T	2I	16CLL	16cLL
.	.	16E	16e
.	.	16G	16g
.	.	16cJJ	16ccJJ
.	.	16CLL	16cLL
.	.	16E	16e
.	.	16G	16g
.	.	16cJJ	16ccJJ
=353	=353	=353	=353
4T	4Vb	16BBLL	16dLL
.	.	16D	16g
.	.	16G	16b
.	.	16BJJ	16ddJJ
4T	4I	16CLL	16eLL
.	.	16E	16g
.	.	16G	16cc
.	.	16cJJ	16eeJJ
=354	=354	=354	=354
4P	4IVb	16AALL	16fLL
.	.	16C	16a
.	.	16F	16cc
.	.	16AJJ	16ffJJ
4P	4iib	16FFLL	16fLL
.	.	16C	16a
.	.	16D	16dd
.	.	16FJJ	16ffJJ
=355	=355	=355	=355
4D	4Ic	16GGLL	16dLL
.	.	16C	16g
.	.	16D	16cc
.	.	16GJJ	16ddJJ
4D	4V	16GGLL	16dLL
.	.	16BB	16g
.	.	16D	16b
.	.	16GJJ	16ddJJ
=356	=356	=356	=356
2T	2I	16CLL	16eLL
.	.	16E	16g
.	.	16G	16cc
.	.	16cJJ	16eeJJ
.	.	16CLL	16cLL
.	.	16E	16e
.	.	16G	16g
.	.	16cJJ	16ccJJ
=357	=357	=357	=357
4T	4Vb	16BBLL	16dLL
.	.	16D	16g
.	.	16G	16b
.	.	16BJJ	16ddJJ
4T	4I	16CLL	16eLL
.	.	16E	16g
.	.	16G	16cc
.	.	16cJJ	16eeJJ
=358	=358	=358	=358
4P	4IVb	16AALL	16fLL
.	.	16C	16a
.	.	16F	16cc
.	.	16AJJ	16ffJJ
4P	4iib	16FFLL	16fLL
.	.	16C	16a
.	.	16D	16dd
.	.	16FJJ	16ffJJ
=359	=359	=359	=359
4D	4Ic	16GGLL	16dLL
.	.	16C	16g
.	.	16D	16cc
.	.	16GJJ	16ddJJ
4D	4V	16GGLL	16dLL
.	.	16BB	16g
.	.	16D	16b
.	.	16GJJ	16ddJJ
=360	=360	=360	=360
2T	2I	16CCLL	8cc'L
.	.	16EE	.
.	.	16GG	(16eL
.	.	16CJJ	16gJJ
.	.	16CCLL	16ccLL
.	.	16EE	16ee
.	.	16GG	16dd
.	.	16CJJ	16ccJJ)
=361	=361	=361	=361
2T	2V7	16CCLL	8r
.	.	16DD	.
.	.	16FF	(16bLL
.	.	16BBJJ	16ddJJ
.	.	16CCLL	16ffLL
.	.	16DD	16aa
.	.	16FF	16gg
.	.	16BBJJ	16ffJJ)
=362	=362	=362	=362
2T	2I	16CCLL	8r
.	.	16EE	.
.	.	16GG	(16eeLL
.	.	16CJJ	16ggJJ
.	.	16CCLL	16cccLL
.	.	16EE	16eee
.	.	16GG	16ddd
.	.	16CJJ	16cccJJ
=363	=363	=363	=363
2T	2V7	16CCLL	16bbLL
.	.	16FF	16aa
.	.	16GG	16gg
.	.	16DJJ	16ffJJ
.	.	16CCLL	16eeLL
.	.	16FF	16dd
.	.	16GG	16cc
.	.	16DJJ	16bJJ)
=364	=364	=364	=364
2T	2I	16CCLL	8cc'L
.	.	16EE	.
.	.	16GG	(16eL
.	.	16CJJ	16gJJ
.	.	16CCLL	16ccLL
.	.	16EE	16ee
.	.	16GG	16dd
.	.	16CJJ	16ccJJ)
=365	=365	=365	=365
2T	2V7	16CCLL	8r
.	.	16DD	.
.	.	16FF	(16bLL
.	.	16BBJJ	16ddJJ
.	.	16CCLL	16ffLL
.	.	16DD	16aa
.	.	16FF	16gg
.	.	16BBJJ	16ffJJ)
=366	=366	=366	=366
2T	2I	16CCLL	8r
.	.	16EE	.
.	.	16GG	(16eeLL
.	.	16CJJ	16ggJJ
.	.	16CCLL	16cccLL
.	.	16EE	16eee
.	.	16GG	16ddd
.	.	16CJJ	16cccJJ
=367	=367	=367	=367
2T	2V7	16CCLL	16bbLL
.	.	16FF	16aa
.	.	16GG	16gg
.	.	16DJJ	16ffJJ
.	.	16CCLL	16eeLL
.	.	16FF	16dd
.	.	16GG	16cc
.	.	16DJJ	16bJJ)
=368	=368	=368	=368
2T	2I	16CCLL	8cc'L
.	.	16EE	.
.	.	16GG	(16eL
.	.	16CJJ	16gJJ
.	.	16CCLL	16ccLL
.	.	16EE	16ee
.	.	16GG	16dd
.	.	16CJJ	16ccJJ
=369	=369	=369	=369
2T	2V7	16CCLL	16bLL
.	.	16FF	16a
.	.	16GG	16g
.	.	16DJJ	16fJJ
.	.	16CCLL	16eLL
.	.	16FF	16d
.	.	16GG	16c
.	.	16DJJ	16BJJ)
=370	=370	=370	=370
2T	2I	4CC 4EE 4GG 4C	16cLL
.	.	.	16G
.	.	.	16E
.	.	.	16GJJ
.	.	4r	16cLL
.	.	.	16e
.	.	.	16g
.	.	.	16eJJ
=371	=371	=371	=371
2T	2I	4CC 4EE 4GG 4C	16cLL
.	.	.	16G
.	.	.	16E
.	.	.	16GJJ
.	.	4r	16cLL
.	.	.	16e
.	.	.	16g
.	.	.	16eJJ
=372	=372	=372	=372
2T	2I	4CC 4EE 4GG 4C	4c
.	.	4r	4r
==	==	==	==
*-	*-	*-	*-
